%
(Header)
(Generated by gcodetools from Inkscape.)
(Using default header. To add your own header create file "header" in the output dir.)
M3
(Header end.)
G21 (All units in mm)
M05

(Start cutting path id: polyline2997)
(Change tool to Default tool)


G00 X1.386753 Y58.790348
M03S030
G01 Z-1.000000 F50.0(Penetrate)
G01 X1.386753 Y60.378782 Z-1.000000 F3000.000000
G01 X2.958738 Y61.172999 Z-1.000000
G01 X2.958738 Y59.584565 Z-1.000000
G01 X4.549002 Y58.790348 Z-1.000000
G01 X4.549002 Y60.378782 Z-1.000000
G01 X4.549002 Y61.967217 Z-1.000000
G01 X2.958738 Y62.761434 Z-1.000000
G01 X2.958738 Y64.349868 Z-1.000000
G01 X4.549002 Y65.144085 Z-1.000000
G01 X6.120988 Y65.938303 Z-1.000000
G01 X6.120988 Y64.349868 Z-1.000000
G01 X4.549002 Y63.555651 Z-1.000000
G01 X6.120988 Y62.761434 Z-1.000000
G01 X7.711252 Y63.555651 Z-1.000000
G01 X9.301516 Y62.761434 Z-1.000000
G01 X9.301516 Y61.172999 Z-1.000000
G01 X9.301516 Y59.584565 Z-1.000000
G01 X7.711252 Y60.378782 Z-1.000000
G01 X7.711252 Y61.967217 Z-1.000000
G01 X6.120988 Y61.172999 Z-1.000000
G01 X6.120988 Y59.584565 Z-1.000000
G01 X7.711252 Y58.790348 Z-1.000000
G01 X7.711252 Y57.201913 Z-1.000000
G01 X6.120988 Y57.996131 Z-1.000000
G01 X4.549002 Y57.201913 Z-1.000000
G01 X6.120988 Y56.407696 Z-1.000000
G01 X7.711252 Y55.613479 Z-1.000000
G01 X9.301516 Y56.407696 Z-1.000000
G01 X9.301516 Y57.996131 Z-1.000000
G01 X10.873502 Y58.790348 Z-1.000000
G01 X10.873502 Y57.201913 Z-1.000000
G01 X12.463766 Y56.407696 Z-1.000000
G01 X12.463766 Y57.996131 Z-1.000000
G01 X12.463766 Y59.584565 Z-1.000000
G01 X10.873502 Y60.378782 Z-1.000000
G01 X10.873502 Y61.967217 Z-1.000000
G01 X12.463766 Y62.761434 Z-1.000000
G01 X12.463766 Y61.172999 Z-1.000000
G01 X14.035751 Y60.378782 Z-1.000000
G01 X14.035751 Y61.967217 Z-1.000000
G01 X14.035751 Y63.555651 Z-1.000000
G01 X12.463766 Y64.349868 Z-1.000000
G01 X10.873502 Y63.555651 Z-1.000000
G01 X9.301516 Y64.349868 Z-1.000000
G01 X7.711252 Y65.144085 Z-1.000000
G01 X9.301516 Y65.938303 Z-1.000000
G01 X10.873502 Y65.144085 Z-1.000000
G01 X10.873502 Y66.732520 Z-1.000000
G01 X9.301516 Y67.526737 Z-1.000000
G01 X9.301516 Y69.115171 Z-1.000000
G01 X10.873502 Y69.909388 Z-1.000000
G01 X10.873502 Y68.320954 Z-1.000000
G01 X12.463766 Y67.526737 Z-1.000000
G01 X12.463766 Y69.115171 Z-1.000000
G01 X12.463766 Y70.703606 Z-1.000000
G01 X10.873502 Y71.497823 Z-1.000000
G01 X10.873502 Y73.086257 Z-1.000000
G01 X12.463766 Y73.880474 Z-1.000000
G01 X14.035751 Y74.674692 Z-1.000000
G01 X14.035751 Y73.086257 Z-1.000000
G01 X12.463766 Y72.292040 Z-1.000000
G01 X14.035751 Y71.497823 Z-1.000000
G01 X15.626016 Y72.292040 Z-1.000000
G01 X15.626016 Y73.880474 Z-1.000000
G01 X17.216280 Y74.674692 Z-1.000000
G01 X18.788265 Y75.468909 Z-1.000000
G01 X18.788265 Y73.880474 Z-1.000000
G01 X17.216280 Y73.086257 Z-1.000000
G01 X18.788265 Y72.292040 Z-1.000000
G01 X20.378530 Y73.086257 Z-1.000000
G01 X21.950515 Y72.292040 Z-1.000000
G01 X21.950515 Y70.703606 Z-1.000000
G01 X21.950515 Y69.115171 Z-1.000000
G01 X20.378530 Y69.909388 Z-1.000000
G01 X20.378530 Y71.497823 Z-1.000000
G01 X18.788265 Y70.703606 Z-1.000000
G01 X18.788265 Y69.115171 Z-1.000000
G01 X17.216280 Y68.320954 Z-1.000000
G01 X15.626016 Y69.115171 Z-1.000000
G01 X17.216280 Y69.909388 Z-1.000000
G01 X17.216280 Y71.497823 Z-1.000000
G01 X15.626016 Y70.703606 Z-1.000000
G01 X14.035751 Y69.909388 Z-1.000000
G01 X14.035751 Y68.320954 Z-1.000000
G01 X15.626016 Y67.526737 Z-1.000000
G01 X15.626016 Y65.938303 Z-1.000000
G01 X14.035751 Y66.732520 Z-1.000000
G01 X12.463766 Y65.938303 Z-1.000000
G01 X14.035751 Y65.144085 Z-1.000000
G01 X15.626016 Y64.349868 Z-1.000000
G01 X17.216280 Y65.144085 Z-1.000000
G01 X17.216280 Y66.732520 Z-1.000000
G01 X18.788265 Y67.526737 Z-1.000000
G01 X20.378530 Y68.320954 Z-1.000000
G01 X20.378530 Y66.732520 Z-1.000000
G01 X18.788265 Y65.938303 Z-1.000000
G01 X20.378530 Y65.144085 Z-1.000000
G01 X21.950515 Y65.938303 Z-1.000000
G01 X23.540779 Y65.144085 Z-1.000000
G01 X23.540779 Y63.555651 Z-1.000000
G01 X21.950515 Y64.349868 Z-1.000000
G01 X20.378530 Y63.555651 Z-1.000000
G01 X21.950515 Y62.761434 Z-1.000000
G01 X23.540779 Y61.967217 Z-1.000000
G01 X25.131044 Y62.761434 Z-1.000000
G01 X26.703029 Y61.967217 Z-1.000000
G01 X26.703029 Y60.378782 Z-1.000000
G01 X26.703029 Y58.790348 Z-1.000000
G01 X25.131044 Y59.584565 Z-1.000000
G01 X25.131044 Y61.172999 Z-1.000000
G01 X23.540779 Y60.378782 Z-1.000000
G01 X23.540779 Y58.790348 Z-1.000000
G01 X25.131044 Y57.996131 Z-1.000000
G01 X25.131044 Y56.407696 Z-1.000000
G01 X25.131044 Y54.819262 Z-1.000000
G01 X23.540779 Y55.613479 Z-1.000000
G01 X23.540779 Y57.201913 Z-1.000000
G01 X21.950515 Y56.407696 Z-1.000000
G01 X21.950515 Y54.819262 Z-1.000000
G01 X20.378530 Y54.025045 Z-1.000000
G01 X18.788265 Y54.819262 Z-1.000000
G01 X17.216280 Y55.613479 Z-1.000000
G01 X18.788265 Y56.407696 Z-1.000000
G01 X20.378530 Y55.613479 Z-1.000000
G01 X20.378530 Y57.201913 Z-1.000000
G01 X18.788265 Y57.996131 Z-1.000000
G01 X18.788265 Y59.584565 Z-1.000000
G01 X20.378530 Y60.378782 Z-1.000000
G01 X20.378530 Y58.790348 Z-1.000000
G01 X21.950515 Y57.996131 Z-1.000000
G01 X21.950515 Y59.584565 Z-1.000000
G01 X21.950515 Y61.172999 Z-1.000000
G01 X20.378530 Y61.967217 Z-1.000000
G01 X18.788265 Y61.172999 Z-1.000000
G01 X17.216280 Y61.967217 Z-1.000000
G01 X18.788265 Y62.761434 Z-1.000000
G01 X18.788265 Y64.349868 Z-1.000000
G01 X17.216280 Y63.555651 Z-1.000000
G01 X15.626016 Y62.761434 Z-1.000000
G01 X15.626016 Y61.172999 Z-1.000000
G01 X17.216280 Y60.378782 Z-1.000000
G01 X17.216280 Y58.790348 Z-1.000000
G01 X17.216280 Y57.201913 Z-1.000000
G01 X15.626016 Y57.996131 Z-1.000000
G01 X15.626016 Y59.584565 Z-1.000000
G01 X14.035751 Y58.790348 Z-1.000000
G01 X14.035751 Y57.201913 Z-1.000000
G01 X15.626016 Y56.407696 Z-1.000000
G01 X15.626016 Y54.819262 Z-1.000000
G01 X14.035751 Y55.613479 Z-1.000000
G01 X12.463766 Y54.819262 Z-1.000000
G01 X14.035751 Y54.025045 Z-1.000000
G01 X15.626016 Y53.230827 Z-1.000000
G01 X17.216280 Y54.025045 Z-1.000000
G01 X18.788265 Y53.230827 Z-1.000000
G01 X18.788265 Y51.642393 Z-1.000000
G01 X18.788265 Y50.053959 Z-1.000000
G01 X17.216280 Y50.848176 Z-1.000000
G01 X17.216280 Y52.436610 Z-1.000000
G01 X15.626016 Y51.642393 Z-1.000000
G01 X15.626016 Y50.053959 Z-1.000000
G01 X14.035751 Y49.259742 Z-1.000000
G01 X12.463766 Y50.053959 Z-1.000000
G01 X10.873502 Y50.848176 Z-1.000000
G01 X12.463766 Y51.642393 Z-1.000000
G01 X14.035751 Y50.848176 Z-1.000000
G01 X14.035751 Y52.436610 Z-1.000000
G01 X12.463766 Y53.230827 Z-1.000000
G01 X10.873502 Y52.436610 Z-1.000000
G01 X9.301516 Y53.230827 Z-1.000000
G01 X10.873502 Y54.025045 Z-1.000000
G01 X10.873502 Y55.613479 Z-1.000000
G01 X9.301516 Y54.819262 Z-1.000000
G01 X7.711252 Y54.025045 Z-1.000000
G01 X7.711252 Y52.436610 Z-1.000000
G01 X9.301516 Y51.642393 Z-1.000000
G01 X9.301516 Y50.053959 Z-1.000000
G01 X7.711252 Y50.848176 Z-1.000000
G01 X6.120988 Y50.053959 Z-1.000000
G01 X7.711252 Y49.259742 Z-1.000000
G01 X9.301516 Y48.465524 Z-1.000000
G01 X10.873502 Y49.259742 Z-1.000000
G01 X12.463766 Y48.465524 Z-1.000000
G01 X12.463766 Y46.877090 Z-1.000000
G01 X10.873502 Y47.671307 Z-1.000000
G01 X9.301516 Y46.877090 Z-1.000000
G01 X10.873502 Y46.082873 Z-1.000000
G01 X12.463766 Y45.288656 Z-1.000000
G01 X14.035751 Y46.082873 Z-1.000000
G01 X14.035751 Y47.671307 Z-1.000000
G01 X15.626016 Y48.465524 Z-1.000000
G01 X17.216280 Y49.259742 Z-1.000000
G01 X17.216280 Y47.671307 Z-1.000000
G01 X15.626016 Y46.877090 Z-1.000000
G01 X17.216280 Y46.082873 Z-1.000000
G01 X18.788265 Y46.877090 Z-1.000000
G01 X18.788265 Y48.465524 Z-1.000000
G01 X20.378530 Y49.259742 Z-1.000000
G01 X20.378530 Y47.671307 Z-1.000000
G01 X21.950515 Y46.877090 Z-1.000000
G01 X21.950515 Y48.465524 Z-1.000000
G01 X21.950515 Y50.053959 Z-1.000000
G01 X20.378530 Y50.848176 Z-1.000000
G01 X20.378530 Y52.436610 Z-1.000000
G01 X21.950515 Y53.230827 Z-1.000000
G01 X23.540779 Y54.025045 Z-1.000000
G01 X23.540779 Y52.436610 Z-1.000000
G01 X21.950515 Y51.642393 Z-1.000000
G01 X23.540779 Y50.848176 Z-1.000000
G01 X25.131044 Y51.642393 Z-1.000000
G01 X26.703029 Y50.848176 Z-1.000000
G01 X26.703029 Y49.259742 Z-1.000000
G01 X26.703029 Y47.671307 Z-1.000000
G01 X25.131044 Y48.465524 Z-1.000000
G01 X25.131044 Y50.053959 Z-1.000000
G01 X23.540779 Y49.259742 Z-1.000000
G01 X23.540779 Y47.671307 Z-1.000000
G01 X25.131044 Y46.877090 Z-1.000000
G01 X25.131044 Y45.288656 Z-1.000000
G01 X23.540779 Y46.082873 Z-1.000000
G01 X21.950515 Y45.288656 Z-1.000000
G01 X23.540779 Y44.494438 Z-1.000000
G01 X25.131044 Y43.700221 Z-1.000000
G01 X26.703029 Y44.494438 Z-1.000000
G01 X26.703029 Y46.082873 Z-1.000000
G01 X28.293293 Y46.877090 Z-1.000000
G01 X28.293293 Y45.288656 Z-1.000000
G01 X29.865279 Y44.494438 Z-1.000000
G01 X29.865279 Y46.082873 Z-1.000000
G01 X29.865279 Y47.671307 Z-1.000000
G01 X28.293293 Y48.465524 Z-1.000000
G01 X28.293293 Y50.053959 Z-1.000000
G01 X29.865279 Y50.848176 Z-1.000000
G01 X29.865279 Y49.259742 Z-1.000000
G01 X31.455543 Y48.465524 Z-1.000000
G01 X31.455543 Y50.053959 Z-1.000000
G01 X31.455543 Y51.642393 Z-1.000000
G01 X29.865279 Y52.436610 Z-1.000000
G01 X28.293293 Y51.642393 Z-1.000000
G01 X26.703029 Y52.436610 Z-1.000000
G01 X25.131044 Y53.230827 Z-1.000000
G01 X26.703029 Y54.025045 Z-1.000000
G01 X28.293293 Y53.230827 Z-1.000000
G01 X28.293293 Y54.819262 Z-1.000000
G01 X26.703029 Y55.613479 Z-1.000000
G01 X26.703029 Y57.201913 Z-1.000000
G01 X28.293293 Y57.996131 Z-1.000000
G01 X28.293293 Y56.407696 Z-1.000000
G01 X29.865279 Y55.613479 Z-1.000000
G01 X29.865279 Y57.201913 Z-1.000000
G01 X29.865279 Y58.790348 Z-1.000000
G01 X28.293293 Y59.584565 Z-1.000000
G01 X28.293293 Y61.172999 Z-1.000000
G01 X29.865279 Y61.967217 Z-1.000000
G01 X31.455543 Y62.761434 Z-1.000000
G01 X31.455543 Y61.172999 Z-1.000000
G01 X29.865279 Y60.378782 Z-1.000000
G01 X31.455543 Y59.584565 Z-1.000000
G01 X33.045807 Y60.378782 Z-1.000000
G01 X34.617793 Y59.584565 Z-1.000000
G01 X34.617793 Y57.996131 Z-1.000000
G01 X34.617793 Y56.407696 Z-1.000000
G01 X33.045807 Y57.201913 Z-1.000000
G01 X33.045807 Y58.790348 Z-1.000000
G01 X31.455543 Y57.996131 Z-1.000000
G01 X31.455543 Y56.407696 Z-1.000000
G01 X33.045807 Y55.613479 Z-1.000000
G01 X33.045807 Y54.025045 Z-1.000000
G01 X31.455543 Y54.819262 Z-1.000000
G01 X29.865279 Y54.025045 Z-1.000000
G01 X31.455543 Y53.230827 Z-1.000000
G01 X33.045807 Y52.436610 Z-1.000000
G01 X34.617793 Y53.230827 Z-1.000000
G01 X34.617793 Y54.819262 Z-1.000000
G01 X36.208057 Y55.613479 Z-1.000000
G01 X36.208057 Y54.025045 Z-1.000000
G01 X37.780042 Y53.230827 Z-1.000000
G01 X37.780042 Y54.819262 Z-1.000000
G01 X37.780042 Y56.407696 Z-1.000000
G01 X36.208057 Y57.201913 Z-1.000000
G01 X36.208057 Y58.790348 Z-1.000000
G01 X37.780042 Y59.584565 Z-1.000000
G01 X37.780042 Y57.996131 Z-1.000000
G01 X39.370307 Y57.201913 Z-1.000000
G01 X39.370307 Y58.790348 Z-1.000000
G01 X39.370307 Y60.378782 Z-1.000000
G01 X37.780042 Y61.172999 Z-1.000000
G01 X36.208057 Y60.378782 Z-1.000000
G01 X34.617793 Y61.172999 Z-1.000000
G01 X33.045807 Y61.967217 Z-1.000000
G01 X34.617793 Y62.761434 Z-1.000000
G01 X36.208057 Y61.967217 Z-1.000000
G01 X36.208057 Y63.555651 Z-1.000000
G01 X34.617793 Y64.349868 Z-1.000000
G01 X33.045807 Y63.555651 Z-1.000000
G01 X31.455543 Y64.349868 Z-1.000000
G01 X33.045807 Y65.144085 Z-1.000000
G01 X33.045807 Y66.732520 Z-1.000000
G01 X31.455543 Y65.938303 Z-1.000000
G01 X29.865279 Y65.144085 Z-1.000000
G01 X29.865279 Y63.555651 Z-1.000000
G01 X28.293293 Y62.761434 Z-1.000000
G01 X26.703029 Y63.555651 Z-1.000000
G01 X25.131044 Y64.349868 Z-1.000000
G01 X26.703029 Y65.144085 Z-1.000000
G01 X28.293293 Y64.349868 Z-1.000000
G01 X28.293293 Y65.938303 Z-1.000000
G01 X26.703029 Y66.732520 Z-1.000000
G01 X25.131044 Y65.938303 Z-1.000000
G01 X23.540779 Y66.732520 Z-1.000000
G01 X21.950515 Y67.526737 Z-1.000000
G01 X23.540779 Y68.320954 Z-1.000000
G01 X25.131044 Y67.526737 Z-1.000000
G01 X25.131044 Y69.115171 Z-1.000000
G01 X23.540779 Y69.909388 Z-1.000000
G01 X23.540779 Y71.497823 Z-1.000000
G01 X25.131044 Y72.292040 Z-1.000000
G01 X26.703029 Y73.086257 Z-1.000000
G01 X26.703029 Y71.497823 Z-1.000000
G01 X25.131044 Y70.703606 Z-1.000000
G01 X26.703029 Y69.909388 Z-1.000000
G01 X28.293293 Y70.703606 Z-1.000000
G01 X29.865279 Y69.909388 Z-1.000000
G01 X29.865279 Y68.320954 Z-1.000000
G01 X28.293293 Y69.115171 Z-1.000000
G01 X26.703029 Y68.320954 Z-1.000000
G01 X28.293293 Y67.526737 Z-1.000000
G01 X29.865279 Y66.732520 Z-1.000000
G01 X31.455543 Y67.526737 Z-1.000000
G01 X31.455543 Y69.115171 Z-1.000000
G01 X33.045807 Y69.909388 Z-1.000000
G01 X33.045807 Y68.320954 Z-1.000000
G01 X34.617793 Y67.526737 Z-1.000000
G01 X34.617793 Y69.115171 Z-1.000000
G01 X34.617793 Y70.703606 Z-1.000000
G01 X33.045807 Y71.497823 Z-1.000000
G01 X31.455543 Y70.703606 Z-1.000000
G01 X29.865279 Y71.497823 Z-1.000000
G01 X28.293293 Y72.292040 Z-1.000000
G01 X29.865279 Y73.086257 Z-1.000000
G01 X31.455543 Y72.292040 Z-1.000000
G01 X31.455543 Y73.880474 Z-1.000000
G01 X29.865279 Y74.674692 Z-1.000000
G01 X29.865279 Y76.263126 Z-1.000000
G01 X31.455543 Y77.057343 Z-1.000000
G01 X31.455543 Y75.468909 Z-1.000000
G01 X33.045807 Y74.674692 Z-1.000000
G01 X33.045807 Y76.263126 Z-1.000000
G01 X33.045807 Y77.851560 Z-1.000000
G01 X31.455543 Y78.645778 Z-1.000000
G01 X31.455543 Y80.234212 Z-1.000000
G01 X33.045807 Y81.028429 Z-1.000000
G01 X34.617793 Y81.822646 Z-1.000000
G01 X34.617793 Y80.234212 Z-1.000000
G01 X33.045807 Y79.439995 Z-1.000000
G01 X34.617793 Y78.645778 Z-1.000000
G01 X36.208057 Y79.439995 Z-1.000000
G01 X37.780042 Y78.645778 Z-1.000000
G01 X37.780042 Y77.057343 Z-1.000000
G01 X37.780042 Y75.468909 Z-1.000000
G01 X36.208057 Y76.263126 Z-1.000000
G01 X36.208057 Y77.851560 Z-1.000000
G01 X34.617793 Y77.057343 Z-1.000000
G01 X34.617793 Y75.468909 Z-1.000000
G01 X36.208057 Y74.674692 Z-1.000000
G01 X36.208057 Y73.086257 Z-1.000000
G01 X34.617793 Y73.880474 Z-1.000000
G01 X33.045807 Y73.086257 Z-1.000000
G01 X34.617793 Y72.292040 Z-1.000000
G01 X36.208057 Y71.497823 Z-1.000000
G01 X37.780042 Y72.292040 Z-1.000000
G01 X37.780042 Y73.880474 Z-1.000000
G01 X39.370307 Y74.674692 Z-1.000000
G01 X39.370307 Y73.086257 Z-1.000000
G01 X40.960571 Y72.292040 Z-1.000000
G01 X40.960571 Y73.880474 Z-1.000000
G01 X40.960571 Y75.468909 Z-1.000000
G01 X39.370307 Y76.263126 Z-1.000000
G01 X39.370307 Y77.851560 Z-1.000000
G01 X40.960571 Y78.645778 Z-1.000000
G01 X40.960571 Y77.057343 Z-1.000000
G01 X42.532556 Y76.263126 Z-1.000000
G01 X42.532556 Y77.851560 Z-1.000000
G01 X42.532556 Y79.439995 Z-1.000000
G01 X40.960571 Y80.234212 Z-1.000000
G01 X39.370307 Y79.439995 Z-1.000000
G01 X37.780042 Y80.234212 Z-1.000000
G01 X36.208057 Y81.028429 Z-1.000000
G01 X37.780042 Y81.822646 Z-1.000000
G01 X39.370307 Y81.028429 Z-1.000000
G01 X39.370307 Y82.616864 Z-1.000000
G01 X37.780042 Y83.411081 Z-1.000000
G01 X37.780042 Y84.999515 Z-1.000000
G01 X39.370307 Y85.793732 Z-1.000000
G01 X39.370307 Y84.205298 Z-1.000000
G01 X40.960571 Y83.411081 Z-1.000000
G01 X40.960571 Y84.999515 Z-1.000000
G01 X40.960571 Y86.587950 Z-1.000000
G01 X39.370307 Y87.382167 Z-1.000000
G01 X39.370307 Y88.970601 Z-1.000000
G01 X40.960571 Y89.764818 Z-1.000000
G01 X42.532556 Y90.559035 Z-1.000000
G01 X42.532556 Y88.970601 Z-1.000000
G01 X40.960571 Y88.176384 Z-1.000000
G01 X42.532556 Y87.382167 Z-1.000000
G01 X44.122820 Y88.176384 Z-1.000000
G01 X44.122820 Y89.764818 Z-1.000000
G01 X45.694806 Y90.559035 Z-1.000000
G01 X47.285070 Y91.353253 Z-1.000000
G01 X47.285070 Y89.764818 Z-1.000000
G01 X45.694806 Y88.970601 Z-1.000000
G01 X47.285070 Y88.176384 Z-1.000000
G01 X48.875334 Y88.970601 Z-1.000000
G01 X50.447320 Y88.176384 Z-1.000000
G01 X50.447320 Y86.587950 Z-1.000000
G01 X50.447320 Y84.999515 Z-1.000000
G01 X48.875334 Y85.793732 Z-1.000000
G01 X48.875334 Y87.382167 Z-1.000000
G01 X47.285070 Y86.587950 Z-1.000000
G01 X47.285070 Y84.999515 Z-1.000000
G01 X45.694806 Y84.205298 Z-1.000000
G01 X44.122820 Y84.999515 Z-1.000000
G01 X45.694806 Y85.793732 Z-1.000000
G01 X45.694806 Y87.382167 Z-1.000000
G01 X44.122820 Y86.587950 Z-1.000000
G01 X42.532556 Y85.793732 Z-1.000000
G01 X42.532556 Y84.205298 Z-1.000000
G01 X44.122820 Y83.411081 Z-1.000000
G01 X44.122820 Y81.822646 Z-1.000000
G01 X42.532556 Y82.616864 Z-1.000000
G01 X40.960571 Y81.822646 Z-1.000000
G01 X42.532556 Y81.028429 Z-1.000000
G01 X44.122820 Y80.234212 Z-1.000000
G01 X45.694806 Y81.028429 Z-1.000000
G01 X45.694806 Y82.616864 Z-1.000000
G01 X47.285070 Y83.411081 Z-1.000000
G01 X48.875334 Y84.205298 Z-1.000000
G01 X48.875334 Y82.616864 Z-1.000000
G01 X47.285070 Y81.822646 Z-1.000000
G01 X48.875334 Y81.028429 Z-1.000000
G01 X50.447320 Y81.822646 Z-1.000000
G01 X50.447320 Y83.411081 Z-1.000000
G01 X52.037584 Y84.205298 Z-1.000000
G01 X52.037584 Y82.616864 Z-1.000000
G01 X53.609569 Y81.822646 Z-1.000000
G01 X53.609569 Y83.411081 Z-1.000000
G01 X53.609569 Y84.999515 Z-1.000000
G01 X52.037584 Y85.793732 Z-1.000000
G01 X52.037584 Y87.382167 Z-1.000000
G01 X53.609569 Y88.176384 Z-1.000000
G01 X55.199834 Y88.970601 Z-1.000000
G01 X55.199834 Y87.382167 Z-1.000000
G01 X53.609569 Y86.587950 Z-1.000000
G01 X55.199834 Y85.793732 Z-1.000000
G01 X56.790098 Y86.587950 Z-1.000000
G01 X56.790098 Y88.176384 Z-1.000000
G01 X58.362083 Y88.970601 Z-1.000000
G01 X59.952348 Y89.764818 Z-1.000000
G01 X59.952348 Y88.176384 Z-1.000000
G01 X58.362083 Y87.382167 Z-1.000000
G01 X59.952348 Y86.587950 Z-1.000000
G01 X61.524333 Y87.382167 Z-1.000000
G01 X63.114597 Y86.587950 Z-1.000000
G01 X63.114597 Y84.999515 Z-1.000000
G01 X63.114597 Y83.411081 Z-1.000000
G01 X61.524333 Y84.205298 Z-1.000000
G01 X61.524333 Y85.793732 Z-1.000000
G01 X59.952348 Y84.999515 Z-1.000000
G01 X59.952348 Y83.411081 Z-1.000000
G01 X58.362083 Y82.616864 Z-1.000000
G01 X56.790098 Y83.411081 Z-1.000000
G01 X58.362083 Y84.205298 Z-1.000000
G01 X58.362083 Y85.793732 Z-1.000000
G01 X56.790098 Y84.999515 Z-1.000000
G01 X55.199834 Y84.205298 Z-1.000000
G01 X55.199834 Y82.616864 Z-1.000000
G01 X56.790098 Y81.822646 Z-1.000000
G01 X56.790098 Y80.234212 Z-1.000000
G01 X55.199834 Y81.028429 Z-1.000000
G01 X53.609569 Y80.234212 Z-1.000000
G01 X55.199834 Y79.439995 Z-1.000000
G01 X56.790098 Y78.645778 Z-1.000000
G01 X58.362083 Y79.439995 Z-1.000000
G01 X58.362083 Y81.028429 Z-1.000000
G01 X59.952348 Y81.822646 Z-1.000000
G01 X61.524333 Y82.616864 Z-1.000000
G01 X61.524333 Y81.028429 Z-1.000000
G01 X59.952348 Y80.234212 Z-1.000000
G01 X61.524333 Y79.439995 Z-1.000000
G01 X63.114597 Y80.234212 Z-1.000000
G01 X64.704862 Y79.439995 Z-1.000000
G01 X64.704862 Y77.851560 Z-1.000000
G01 X63.114597 Y78.645778 Z-1.000000
G01 X61.524333 Y77.851560 Z-1.000000
G01 X63.114597 Y77.057343 Z-1.000000
G01 X64.704862 Y76.263126 Z-1.000000
G01 X66.276847 Y77.057343 Z-1.000000
G01 X67.867111 Y76.263126 Z-1.000000
G01 X67.867111 Y74.674692 Z-1.000000
G01 X67.867111 Y73.086257 Z-1.000000
G01 X66.276847 Y73.880474 Z-1.000000
G01 X66.276847 Y75.468909 Z-1.000000
G01 X64.704862 Y74.674692 Z-1.000000
G01 X64.704862 Y73.086257 Z-1.000000
G01 X66.276847 Y72.292040 Z-1.000000
G01 X66.276847 Y70.703606 Z-1.000000
G01 X66.276847 Y69.115171 Z-1.000000
G01 X64.704862 Y69.909388 Z-1.000000
G01 X64.704862 Y71.497823 Z-1.000000
G01 X63.114597 Y70.703606 Z-1.000000
G01 X63.114597 Y69.115171 Z-1.000000
G01 X61.524333 Y68.320954 Z-1.000000
G01 X59.952348 Y69.115171 Z-1.000000
G01 X58.362083 Y69.909388 Z-1.000000
G01 X59.952348 Y70.703606 Z-1.000000
G01 X61.524333 Y69.909388 Z-1.000000
G01 X61.524333 Y71.497823 Z-1.000000
G01 X59.952348 Y72.292040 Z-1.000000
G01 X59.952348 Y73.880474 Z-1.000000
G01 X61.524333 Y74.674692 Z-1.000000
G01 X61.524333 Y73.086257 Z-1.000000
G01 X63.114597 Y72.292040 Z-1.000000
G01 X63.114597 Y73.880474 Z-1.000000
G01 X63.114597 Y75.468909 Z-1.000000
G01 X61.524333 Y76.263126 Z-1.000000
G01 X59.952348 Y75.468909 Z-1.000000
G01 X58.362083 Y76.263126 Z-1.000000
G01 X59.952348 Y77.057343 Z-1.000000
G01 X59.952348 Y78.645778 Z-1.000000
G01 X58.362083 Y77.851560 Z-1.000000
G01 X56.790098 Y77.057343 Z-1.000000
G01 X56.790098 Y75.468909 Z-1.000000
G01 X58.362083 Y74.674692 Z-1.000000
G01 X58.362083 Y73.086257 Z-1.000000
G01 X58.362083 Y71.497823 Z-1.000000
G01 X56.790098 Y72.292040 Z-1.000000
G01 X56.790098 Y73.880474 Z-1.000000
G01 X55.199834 Y73.086257 Z-1.000000
G01 X55.199834 Y71.497823 Z-1.000000
G01 X53.609569 Y70.703606 Z-1.000000
G01 X52.037584 Y71.497823 Z-1.000000
G01 X53.609569 Y72.292040 Z-1.000000
G01 X53.609569 Y73.880474 Z-1.000000
G01 X52.037584 Y73.086257 Z-1.000000
G01 X50.447320 Y72.292040 Z-1.000000
G01 X50.447320 Y70.703606 Z-1.000000
G01 X48.875334 Y69.909388 Z-1.000000
G01 X47.285070 Y70.703606 Z-1.000000
G01 X45.694806 Y71.497823 Z-1.000000
G01 X47.285070 Y72.292040 Z-1.000000
G01 X48.875334 Y71.497823 Z-1.000000
G01 X48.875334 Y73.086257 Z-1.000000
G01 X47.285070 Y73.880474 Z-1.000000
G01 X47.285070 Y75.468909 Z-1.000000
G01 X48.875334 Y76.263126 Z-1.000000
G01 X50.447320 Y77.057343 Z-1.000000
G01 X50.447320 Y75.468909 Z-1.000000
G01 X48.875334 Y74.674692 Z-1.000000
G01 X50.447320 Y73.880474 Z-1.000000
G01 X52.037584 Y74.674692 Z-1.000000
G01 X52.037584 Y76.263126 Z-1.000000
G01 X53.609569 Y77.057343 Z-1.000000
G01 X53.609569 Y75.468909 Z-1.000000
G01 X55.199834 Y74.674692 Z-1.000000
G01 X55.199834 Y76.263126 Z-1.000000
G01 X55.199834 Y77.851560 Z-1.000000
G01 X53.609569 Y78.645778 Z-1.000000
G01 X52.037584 Y77.851560 Z-1.000000
G01 X50.447320 Y78.645778 Z-1.000000
G01 X52.037584 Y79.439995 Z-1.000000
G01 X52.037584 Y81.028429 Z-1.000000
G01 X50.447320 Y80.234212 Z-1.000000
G01 X48.875334 Y79.439995 Z-1.000000
G01 X48.875334 Y77.851560 Z-1.000000
G01 X47.285070 Y77.057343 Z-1.000000
G01 X45.694806 Y77.851560 Z-1.000000
G01 X47.285070 Y78.645778 Z-1.000000
G01 X47.285070 Y80.234212 Z-1.000000
G01 X45.694806 Y79.439995 Z-1.000000
G01 X44.122820 Y78.645778 Z-1.000000
G01 X44.122820 Y77.057343 Z-1.000000
G01 X45.694806 Y76.263126 Z-1.000000
G01 X45.694806 Y74.674692 Z-1.000000
G01 X45.694806 Y73.086257 Z-1.000000
G01 X44.122820 Y73.880474 Z-1.000000
G01 X44.122820 Y75.468909 Z-1.000000
G01 X42.532556 Y74.674692 Z-1.000000
G01 X42.532556 Y73.086257 Z-1.000000
G01 X44.122820 Y72.292040 Z-1.000000
G01 X44.122820 Y70.703606 Z-1.000000
G01 X42.532556 Y71.497823 Z-1.000000
G01 X40.960571 Y70.703606 Z-1.000000
G01 X42.532556 Y69.909388 Z-1.000000
G01 X44.122820 Y69.115171 Z-1.000000
G01 X45.694806 Y69.909388 Z-1.000000
G01 X47.285070 Y69.115171 Z-1.000000
G01 X47.285070 Y67.526737 Z-1.000000
G01 X47.285070 Y65.938303 Z-1.000000
G01 X45.694806 Y66.732520 Z-1.000000
G01 X45.694806 Y68.320954 Z-1.000000
G01 X44.122820 Y67.526737 Z-1.000000
G01 X44.122820 Y65.938303 Z-1.000000
G01 X42.532556 Y65.144085 Z-1.000000
G01 X40.960571 Y65.938303 Z-1.000000
G01 X39.370307 Y66.732520 Z-1.000000
G01 X40.960571 Y67.526737 Z-1.000000
G01 X42.532556 Y66.732520 Z-1.000000
G01 X42.532556 Y68.320954 Z-1.000000
G01 X40.960571 Y69.115171 Z-1.000000
G01 X39.370307 Y68.320954 Z-1.000000
G01 X37.780042 Y69.115171 Z-1.000000
G01 X39.370307 Y69.909388 Z-1.000000
G01 X39.370307 Y71.497823 Z-1.000000
G01 X37.780042 Y70.703606 Z-1.000000
G01 X36.208057 Y69.909388 Z-1.000000
G01 X36.208057 Y68.320954 Z-1.000000
G01 X37.780042 Y67.526737 Z-1.000000
G01 X37.780042 Y65.938303 Z-1.000000
G01 X36.208057 Y66.732520 Z-1.000000
G01 X34.617793 Y65.938303 Z-1.000000
G01 X36.208057 Y65.144085 Z-1.000000
G01 X37.780042 Y64.349868 Z-1.000000
G01 X39.370307 Y65.144085 Z-1.000000
G01 X40.960571 Y64.349868 Z-1.000000
G01 X40.960571 Y62.761434 Z-1.000000
G01 X39.370307 Y63.555651 Z-1.000000
G01 X37.780042 Y62.761434 Z-1.000000
G01 X39.370307 Y61.967217 Z-1.000000
G01 X40.960571 Y61.172999 Z-1.000000
G01 X42.532556 Y61.967217 Z-1.000000
G01 X42.532556 Y63.555651 Z-1.000000
G01 X44.122820 Y64.349868 Z-1.000000
G01 X45.694806 Y65.144085 Z-1.000000
G01 X45.694806 Y63.555651 Z-1.000000
G01 X44.122820 Y62.761434 Z-1.000000
G01 X45.694806 Y61.967217 Z-1.000000
G01 X47.285070 Y62.761434 Z-1.000000
G01 X47.285070 Y64.349868 Z-1.000000
G01 X48.875334 Y65.144085 Z-1.000000
G01 X48.875334 Y63.555651 Z-1.000000
G01 X50.447320 Y62.761434 Z-1.000000
G01 X50.447320 Y64.349868 Z-1.000000
G01 X50.447320 Y65.938303 Z-1.000000
G01 X48.875334 Y66.732520 Z-1.000000
G01 X48.875334 Y68.320954 Z-1.000000
G01 X50.447320 Y69.115171 Z-1.000000
G01 X52.037584 Y69.909388 Z-1.000000
G01 X52.037584 Y68.320954 Z-1.000000
G01 X50.447320 Y67.526737 Z-1.000000
G01 X52.037584 Y66.732520 Z-1.000000
G01 X53.609569 Y67.526737 Z-1.000000
G01 X53.609569 Y69.115171 Z-1.000000
G01 X55.199834 Y69.909388 Z-1.000000
G01 X56.790098 Y70.703606 Z-1.000000
G01 X56.790098 Y69.115171 Z-1.000000
G01 X55.199834 Y68.320954 Z-1.000000
G01 X56.790098 Y67.526737 Z-1.000000
G01 X58.362083 Y68.320954 Z-1.000000
G01 X59.952348 Y67.526737 Z-1.000000
G01 X59.952348 Y65.938303 Z-1.000000
G01 X59.952348 Y64.349868 Z-1.000000
G01 X58.362083 Y65.144085 Z-1.000000
G01 X58.362083 Y66.732520 Z-1.000000
G01 X56.790098 Y65.938303 Z-1.000000
G01 X56.790098 Y64.349868 Z-1.000000
G01 X55.199834 Y63.555651 Z-1.000000
G01 X53.609569 Y64.349868 Z-1.000000
G01 X55.199834 Y65.144085 Z-1.000000
G01 X55.199834 Y66.732520 Z-1.000000
G01 X53.609569 Y65.938303 Z-1.000000
G01 X52.037584 Y65.144085 Z-1.000000
G01 X52.037584 Y63.555651 Z-1.000000
G01 X53.609569 Y62.761434 Z-1.000000
G01 X53.609569 Y61.172999 Z-1.000000
G01 X52.037584 Y61.967217 Z-1.000000
G01 X50.447320 Y61.172999 Z-1.000000
G01 X52.037584 Y60.378782 Z-1.000000
G01 X53.609569 Y59.584565 Z-1.000000
G01 X55.199834 Y60.378782 Z-1.000000
G01 X55.199834 Y61.967217 Z-1.000000
G01 X56.790098 Y62.761434 Z-1.000000
G01 X58.362083 Y63.555651 Z-1.000000
G01 X58.362083 Y61.967217 Z-1.000000
G01 X56.790098 Y61.172999 Z-1.000000
G01 X58.362083 Y60.378782 Z-1.000000
G01 X59.952348 Y61.172999 Z-1.000000
G01 X61.524333 Y60.378782 Z-1.000000
G01 X61.524333 Y58.790348 Z-1.000000
G01 X59.952348 Y59.584565 Z-1.000000
G01 X58.362083 Y58.790348 Z-1.000000
G01 X59.952348 Y57.996131 Z-1.000000
G01 X61.524333 Y57.201913 Z-1.000000
G01 X63.114597 Y57.996131 Z-1.000000
G01 X64.704862 Y57.201913 Z-1.000000
G01 X64.704862 Y55.613479 Z-1.000000
G01 X64.704862 Y54.025045 Z-1.000000
G01 X63.114597 Y54.819262 Z-1.000000
G01 X63.114597 Y56.407696 Z-1.000000
G01 X61.524333 Y55.613479 Z-1.000000
G01 X61.524333 Y54.025045 Z-1.000000
G01 X59.952348 Y53.230827 Z-1.000000
G01 X58.362083 Y54.025045 Z-1.000000
G01 X56.790098 Y54.819262 Z-1.000000
G01 X58.362083 Y55.613479 Z-1.000000
G01 X59.952348 Y54.819262 Z-1.000000
G01 X59.952348 Y56.407696 Z-1.000000
G01 X58.362083 Y57.201913 Z-1.000000
G01 X56.790098 Y56.407696 Z-1.000000
G01 X55.199834 Y57.201913 Z-1.000000
G01 X56.790098 Y57.996131 Z-1.000000
G01 X56.790098 Y59.584565 Z-1.000000
G01 X55.199834 Y58.790348 Z-1.000000
G01 X53.609569 Y57.996131 Z-1.000000
G01 X53.609569 Y56.407696 Z-1.000000
G01 X55.199834 Y55.613479 Z-1.000000
G01 X55.199834 Y54.025045 Z-1.000000
G01 X53.609569 Y54.819262 Z-1.000000
G01 X52.037584 Y54.025045 Z-1.000000
G01 X53.609569 Y53.230827 Z-1.000000
G01 X55.199834 Y52.436610 Z-1.000000
G01 X56.790098 Y53.230827 Z-1.000000
G01 X58.362083 Y52.436610 Z-1.000000
G01 X58.362083 Y50.848176 Z-1.000000
G01 X56.790098 Y51.642393 Z-1.000000
G01 X55.199834 Y50.848176 Z-1.000000
G01 X56.790098 Y50.053959 Z-1.000000
G01 X58.362083 Y49.259742 Z-1.000000
G01 X59.952348 Y50.053959 Z-1.000000
G01 X59.952348 Y51.642393 Z-1.000000
G01 X61.524333 Y52.436610 Z-1.000000
G01 X63.114597 Y53.230827 Z-1.000000
G01 X63.114597 Y51.642393 Z-1.000000
G01 X61.524333 Y50.848176 Z-1.000000
G01 X63.114597 Y50.053959 Z-1.000000
G01 X64.704862 Y50.848176 Z-1.000000
G01 X66.276847 Y50.053959 Z-1.000000
G01 X66.276847 Y48.465524 Z-1.000000
G01 X64.704862 Y49.259742 Z-1.000000
G01 X63.114597 Y48.465524 Z-1.000000
G01 X64.704862 Y47.671307 Z-1.000000
G01 X66.276847 Y46.877090 Z-1.000000
G01 X67.867111 Y47.671307 Z-1.000000
G01 X69.439097 Y46.877090 Z-1.000000
G01 X69.439097 Y45.288656 Z-1.000000
G01 X69.439097 Y43.700221 Z-1.000000
G01 X67.867111 Y44.494438 Z-1.000000
G01 X67.867111 Y46.082873 Z-1.000000
G01 X66.276847 Y45.288656 Z-1.000000
G01 X66.276847 Y43.700221 Z-1.000000
G01 X67.867111 Y42.906004 Z-1.000000
G01 X67.867111 Y41.317570 Z-1.000000
G01 X67.867111 Y39.729135 Z-1.000000
G01 X66.276847 Y40.523352 Z-1.000000
G01 X66.276847 Y42.111787 Z-1.000000
G01 X64.704862 Y41.317570 Z-1.000000
G01 X64.704862 Y39.729135 Z-1.000000
G01 X63.114597 Y38.934918 Z-1.000000
G01 X61.524333 Y39.729135 Z-1.000000
G01 X59.952348 Y40.523352 Z-1.000000
G01 X61.524333 Y41.317570 Z-1.000000
G01 X63.114597 Y40.523352 Z-1.000000
G01 X63.114597 Y42.111787 Z-1.000000
G01 X61.524333 Y42.906004 Z-1.000000
G01 X61.524333 Y44.494438 Z-1.000000
G01 X63.114597 Y45.288656 Z-1.000000
G01 X63.114597 Y43.700221 Z-1.000000
G01 X64.704862 Y42.906004 Z-1.000000
G01 X64.704862 Y44.494438 Z-1.000000
G01 X64.704862 Y46.082873 Z-1.000000
G01 X63.114597 Y46.877090 Z-1.000000
G01 X61.524333 Y46.082873 Z-1.000000
G01 X59.952348 Y46.877090 Z-1.000000
G01 X61.524333 Y47.671307 Z-1.000000
G01 X61.524333 Y49.259742 Z-1.000000
G01 X59.952348 Y48.465524 Z-1.000000
G01 X58.362083 Y47.671307 Z-1.000000
G01 X58.362083 Y46.082873 Z-1.000000
G01 X59.952348 Y45.288656 Z-1.000000
G01 X59.952348 Y43.700221 Z-1.000000
G01 X59.952348 Y42.111787 Z-1.000000
G01 X58.362083 Y42.906004 Z-1.000000
G01 X58.362083 Y44.494438 Z-1.000000
G01 X56.790098 Y43.700221 Z-1.000000
G01 X56.790098 Y42.111787 Z-1.000000
G01 X58.362083 Y41.317570 Z-1.000000
G01 X58.362083 Y39.729135 Z-1.000000
G01 X56.790098 Y40.523352 Z-1.000000
G01 X55.199834 Y39.729135 Z-1.000000
G01 X56.790098 Y38.934918 Z-1.000000
G01 X58.362083 Y38.140701 Z-1.000000
G01 X59.952348 Y38.934918 Z-1.000000
G01 X61.524333 Y38.140701 Z-1.000000
G01 X61.524333 Y36.552266 Z-1.000000
G01 X61.524333 Y34.963832 Z-1.000000
G01 X59.952348 Y35.758049 Z-1.000000
G01 X59.952348 Y37.346484 Z-1.000000
G01 X58.362083 Y36.552266 Z-1.000000
G01 X58.362083 Y34.963832 Z-1.000000
G01 X59.952348 Y34.169615 Z-1.000000
G01 X59.952348 Y32.581180 Z-1.000000
G01 X59.952348 Y30.992746 Z-1.000000
G01 X58.362083 Y31.786963 Z-1.000000
G01 X58.362083 Y33.375398 Z-1.000000
G01 X56.790098 Y32.581180 Z-1.000000
G01 X56.790098 Y30.992746 Z-1.000000
G01 X55.199834 Y30.198529 Z-1.000000
G01 X53.609569 Y30.992746 Z-1.000000
G01 X52.037584 Y31.786963 Z-1.000000
G01 X53.609569 Y32.581180 Z-1.000000
G01 X55.199834 Y31.786963 Z-1.000000
G01 X55.199834 Y33.375398 Z-1.000000
G01 X53.609569 Y34.169615 Z-1.000000
G01 X53.609569 Y35.758049 Z-1.000000
G01 X55.199834 Y36.552266 Z-1.000000
G01 X55.199834 Y34.963832 Z-1.000000
G01 X56.790098 Y34.169615 Z-1.000000
G01 X56.790098 Y35.758049 Z-1.000000
G01 X56.790098 Y37.346484 Z-1.000000
G01 X55.199834 Y38.140701 Z-1.000000
G01 X53.609569 Y37.346484 Z-1.000000
G01 X52.037584 Y38.140701 Z-1.000000
G01 X53.609569 Y38.934918 Z-1.000000
G01 X53.609569 Y40.523352 Z-1.000000
G01 X52.037584 Y39.729135 Z-1.000000
G01 X50.447320 Y38.934918 Z-1.000000
G01 X50.447320 Y37.346484 Z-1.000000
G01 X52.037584 Y36.552266 Z-1.000000
G01 X52.037584 Y34.963832 Z-1.000000
G01 X52.037584 Y33.375398 Z-1.000000
G01 X50.447320 Y34.169615 Z-1.000000
G01 X50.447320 Y35.758049 Z-1.000000
G01 X48.875334 Y34.963832 Z-1.000000
G01 X48.875334 Y33.375398 Z-1.000000
G01 X47.285070 Y32.581180 Z-1.000000
G01 X45.694806 Y33.375398 Z-1.000000
G01 X47.285070 Y34.169615 Z-1.000000
G01 X47.285070 Y35.758049 Z-1.000000
G01 X45.694806 Y34.963832 Z-1.000000
G01 X44.122820 Y34.169615 Z-1.000000
G01 X44.122820 Y32.581180 Z-1.000000
G01 X42.532556 Y31.786963 Z-1.000000
G01 X40.960571 Y32.581180 Z-1.000000
G01 X39.370307 Y33.375398 Z-1.000000
G01 X40.960571 Y34.169615 Z-1.000000
G01 X42.532556 Y33.375398 Z-1.000000
G01 X42.532556 Y34.963832 Z-1.000000
G01 X40.960571 Y35.758049 Z-1.000000
G01 X39.370307 Y34.963832 Z-1.000000
G01 X37.780042 Y35.758049 Z-1.000000
G01 X36.208057 Y36.552266 Z-1.000000
G01 X37.780042 Y37.346484 Z-1.000000
G01 X39.370307 Y36.552266 Z-1.000000
G01 X39.370307 Y38.140701 Z-1.000000
G01 X37.780042 Y38.934918 Z-1.000000
G01 X37.780042 Y40.523352 Z-1.000000
G01 X39.370307 Y41.317570 Z-1.000000
G01 X40.960571 Y42.111787 Z-1.000000
G01 X40.960571 Y40.523352 Z-1.000000
G01 X39.370307 Y39.729135 Z-1.000000
G01 X40.960571 Y38.934918 Z-1.000000
G01 X42.532556 Y39.729135 Z-1.000000
G01 X44.122820 Y38.934918 Z-1.000000
G01 X44.122820 Y37.346484 Z-1.000000
G01 X42.532556 Y38.140701 Z-1.000000
G01 X40.960571 Y37.346484 Z-1.000000
G01 X42.532556 Y36.552266 Z-1.000000
G01 X44.122820 Y35.758049 Z-1.000000
G01 X45.694806 Y36.552266 Z-1.000000
G01 X45.694806 Y38.140701 Z-1.000000
G01 X47.285070 Y38.934918 Z-1.000000
G01 X47.285070 Y37.346484 Z-1.000000
G01 X48.875334 Y36.552266 Z-1.000000
G01 X48.875334 Y38.140701 Z-1.000000
G01 X48.875334 Y39.729135 Z-1.000000
G01 X47.285070 Y40.523352 Z-1.000000
G01 X45.694806 Y39.729135 Z-1.000000
G01 X44.122820 Y40.523352 Z-1.000000
G01 X42.532556 Y41.317570 Z-1.000000
G01 X44.122820 Y42.111787 Z-1.000000
G01 X45.694806 Y41.317570 Z-1.000000
G01 X45.694806 Y42.906004 Z-1.000000
G01 X44.122820 Y43.700221 Z-1.000000
G01 X44.122820 Y45.288656 Z-1.000000
G01 X45.694806 Y46.082873 Z-1.000000
G01 X45.694806 Y44.494438 Z-1.000000
G01 X47.285070 Y43.700221 Z-1.000000
G01 X47.285070 Y45.288656 Z-1.000000
G01 X47.285070 Y46.877090 Z-1.000000
G01 X45.694806 Y47.671307 Z-1.000000
G01 X45.694806 Y49.259742 Z-1.000000
G01 X47.285070 Y50.053959 Z-1.000000
G01 X48.875334 Y50.848176 Z-1.000000
G01 X48.875334 Y49.259742 Z-1.000000
G01 X47.285070 Y48.465524 Z-1.000000
G01 X48.875334 Y47.671307 Z-1.000000
G01 X50.447320 Y48.465524 Z-1.000000
G01 X52.037584 Y47.671307 Z-1.000000
G01 X52.037584 Y46.082873 Z-1.000000
G01 X52.037584 Y44.494438 Z-1.000000
G01 X50.447320 Y45.288656 Z-1.000000
G01 X50.447320 Y46.877090 Z-1.000000
G01 X48.875334 Y46.082873 Z-1.000000
G01 X48.875334 Y44.494438 Z-1.000000
G01 X50.447320 Y43.700221 Z-1.000000
G01 X50.447320 Y42.111787 Z-1.000000
G01 X48.875334 Y42.906004 Z-1.000000
G01 X47.285070 Y42.111787 Z-1.000000
G01 X48.875334 Y41.317570 Z-1.000000
G01 X50.447320 Y40.523352 Z-1.000000
G01 X52.037584 Y41.317570 Z-1.000000
G01 X52.037584 Y42.906004 Z-1.000000
G01 X53.609569 Y43.700221 Z-1.000000
G01 X53.609569 Y42.111787 Z-1.000000
G01 X55.199834 Y41.317570 Z-1.000000
G01 X55.199834 Y42.906004 Z-1.000000
G01 X55.199834 Y44.494438 Z-1.000000
G01 X53.609569 Y45.288656 Z-1.000000
G01 X53.609569 Y46.877090 Z-1.000000
G01 X55.199834 Y47.671307 Z-1.000000
G01 X55.199834 Y46.082873 Z-1.000000
G01 X56.790098 Y45.288656 Z-1.000000
G01 X56.790098 Y46.877090 Z-1.000000
G01 X56.790098 Y48.465524 Z-1.000000
G01 X55.199834 Y49.259742 Z-1.000000
G01 X53.609569 Y48.465524 Z-1.000000
G01 X52.037584 Y49.259742 Z-1.000000
G01 X50.447320 Y50.053959 Z-1.000000
G01 X52.037584 Y50.848176 Z-1.000000
G01 X53.609569 Y50.053959 Z-1.000000
G01 X53.609569 Y51.642393 Z-1.000000
G01 X52.037584 Y52.436610 Z-1.000000
G01 X50.447320 Y51.642393 Z-1.000000
G01 X48.875334 Y52.436610 Z-1.000000
G01 X50.447320 Y53.230827 Z-1.000000
G01 X50.447320 Y54.819262 Z-1.000000
G01 X48.875334 Y54.025045 Z-1.000000
G01 X47.285070 Y53.230827 Z-1.000000
G01 X47.285070 Y51.642393 Z-1.000000
G01 X45.694806 Y50.848176 Z-1.000000
G01 X44.122820 Y51.642393 Z-1.000000
G01 X42.532556 Y52.436610 Z-1.000000
G01 X44.122820 Y53.230827 Z-1.000000
G01 X45.694806 Y52.436610 Z-1.000000
G01 X45.694806 Y54.025045 Z-1.000000
G01 X44.122820 Y54.819262 Z-1.000000
G01 X44.122820 Y56.407696 Z-1.000000
G01 X45.694806 Y57.201913 Z-1.000000
G01 X47.285070 Y57.996131 Z-1.000000
G01 X47.285070 Y56.407696 Z-1.000000
G01 X45.694806 Y55.613479 Z-1.000000
G01 X47.285070 Y54.819262 Z-1.000000
G01 X48.875334 Y55.613479 Z-1.000000
G01 X48.875334 Y57.201913 Z-1.000000
G01 X50.447320 Y57.996131 Z-1.000000
G01 X50.447320 Y56.407696 Z-1.000000
G01 X52.037584 Y55.613479 Z-1.000000
G01 X52.037584 Y57.201913 Z-1.000000
G01 X52.037584 Y58.790348 Z-1.000000
G01 X50.447320 Y59.584565 Z-1.000000
G01 X48.875334 Y58.790348 Z-1.000000
G01 X47.285070 Y59.584565 Z-1.000000
G01 X48.875334 Y60.378782 Z-1.000000
G01 X48.875334 Y61.967217 Z-1.000000
G01 X47.285070 Y61.172999 Z-1.000000
G01 X45.694806 Y60.378782 Z-1.000000
G01 X45.694806 Y58.790348 Z-1.000000
G01 X44.122820 Y57.996131 Z-1.000000
G01 X42.532556 Y58.790348 Z-1.000000
G01 X44.122820 Y59.584565 Z-1.000000
G01 X44.122820 Y61.172999 Z-1.000000
G01 X42.532556 Y60.378782 Z-1.000000
G01 X40.960571 Y59.584565 Z-1.000000
G01 X40.960571 Y57.996131 Z-1.000000
G01 X42.532556 Y57.201913 Z-1.000000
G01 X42.532556 Y55.613479 Z-1.000000
G01 X42.532556 Y54.025045 Z-1.000000
G01 X40.960571 Y54.819262 Z-1.000000
G01 X40.960571 Y56.407696 Z-1.000000
G01 X39.370307 Y55.613479 Z-1.000000
G01 X39.370307 Y54.025045 Z-1.000000
G01 X40.960571 Y53.230827 Z-1.000000
G01 X40.960571 Y51.642393 Z-1.000000
G01 X39.370307 Y52.436610 Z-1.000000
G01 X37.780042 Y51.642393 Z-1.000000
G01 X39.370307 Y50.848176 Z-1.000000
G01 X40.960571 Y50.053959 Z-1.000000
G01 X42.532556 Y50.848176 Z-1.000000
G01 X44.122820 Y50.053959 Z-1.000000
G01 X44.122820 Y48.465524 Z-1.000000
G01 X44.122820 Y46.877090 Z-1.000000
G01 X42.532556 Y47.671307 Z-1.000000
G01 X42.532556 Y49.259742 Z-1.000000
G01 X40.960571 Y48.465524 Z-1.000000
G01 X40.960571 Y46.877090 Z-1.000000
G01 X42.532556 Y46.082873 Z-1.000000
G01 X42.532556 Y44.494438 Z-1.000000
G01 X42.532556 Y42.906004 Z-1.000000
G01 X40.960571 Y43.700221 Z-1.000000
G01 X40.960571 Y45.288656 Z-1.000000
G01 X39.370307 Y44.494438 Z-1.000000
G01 X39.370307 Y42.906004 Z-1.000000
G01 X37.780042 Y42.111787 Z-1.000000
G01 X36.208057 Y42.906004 Z-1.000000
G01 X34.617793 Y43.700221 Z-1.000000
G01 X36.208057 Y44.494438 Z-1.000000
G01 X37.780042 Y43.700221 Z-1.000000
G01 X37.780042 Y45.288656 Z-1.000000
G01 X36.208057 Y46.082873 Z-1.000000
G01 X36.208057 Y47.671307 Z-1.000000
G01 X37.780042 Y48.465524 Z-1.000000
G01 X37.780042 Y46.877090 Z-1.000000
G01 X39.370307 Y46.082873 Z-1.000000
G01 X39.370307 Y47.671307 Z-1.000000
G01 X39.370307 Y49.259742 Z-1.000000
G01 X37.780042 Y50.053959 Z-1.000000
G01 X36.208057 Y49.259742 Z-1.000000
G01 X34.617793 Y50.053959 Z-1.000000
G01 X36.208057 Y50.848176 Z-1.000000
G01 X36.208057 Y52.436610 Z-1.000000
G01 X34.617793 Y51.642393 Z-1.000000
G01 X33.045807 Y50.848176 Z-1.000000
G01 X33.045807 Y49.259742 Z-1.000000
G01 X34.617793 Y48.465524 Z-1.000000
G01 X34.617793 Y46.877090 Z-1.000000
G01 X34.617793 Y45.288656 Z-1.000000
G01 X33.045807 Y46.082873 Z-1.000000
G01 X33.045807 Y47.671307 Z-1.000000
G01 X31.455543 Y46.877090 Z-1.000000
G01 X31.455543 Y45.288656 Z-1.000000
G01 X33.045807 Y44.494438 Z-1.000000
G01 X33.045807 Y42.906004 Z-1.000000
G01 X31.455543 Y43.700221 Z-1.000000
G01 X29.865279 Y42.906004 Z-1.000000
G01 X31.455543 Y42.111787 Z-1.000000
G01 X33.045807 Y41.317570 Z-1.000000
G01 X34.617793 Y42.111787 Z-1.000000
G01 X36.208057 Y41.317570 Z-1.000000
G01 X36.208057 Y39.729135 Z-1.000000
G01 X36.208057 Y38.140701 Z-1.000000
G01 X34.617793 Y38.934918 Z-1.000000
G01 X34.617793 Y40.523352 Z-1.000000
G01 X33.045807 Y39.729135 Z-1.000000
G01 X33.045807 Y38.140701 Z-1.000000
G01 X31.455543 Y37.346484 Z-1.000000
G01 X29.865279 Y38.140701 Z-1.000000
G01 X28.293293 Y38.934918 Z-1.000000
G01 X29.865279 Y39.729135 Z-1.000000
G01 X31.455543 Y38.934918 Z-1.000000
G01 X31.455543 Y40.523352 Z-1.000000
G01 X29.865279 Y41.317570 Z-1.000000
G01 X28.293293 Y40.523352 Z-1.000000
G01 X26.703029 Y41.317570 Z-1.000000
G01 X28.293293 Y42.111787 Z-1.000000
G01 X28.293293 Y43.700221 Z-1.000000
G01 X26.703029 Y42.906004 Z-1.000000
G01 X25.131044 Y42.111787 Z-1.000000
G01 X25.131044 Y40.523352 Z-1.000000
G01 X26.703029 Y39.729135 Z-1.000000
G01 X26.703029 Y38.140701 Z-1.000000
G01 X25.131044 Y38.934918 Z-1.000000
G01 X23.540779 Y38.140701 Z-1.000000
G01 X25.131044 Y37.346484 Z-1.000000
G01 X26.703029 Y36.552266 Z-1.000000
G01 X28.293293 Y37.346484 Z-1.000000
G01 X29.865279 Y36.552266 Z-1.000000
G01 X29.865279 Y34.963832 Z-1.000000
G01 X28.293293 Y35.758049 Z-1.000000
G01 X26.703029 Y34.963832 Z-1.000000
G01 X28.293293 Y34.169615 Z-1.000000
G01 X29.865279 Y33.375398 Z-1.000000
G01 X31.455543 Y34.169615 Z-1.000000
G01 X31.455543 Y35.758049 Z-1.000000
G01 X33.045807 Y36.552266 Z-1.000000
G01 X34.617793 Y37.346484 Z-1.000000
G01 X34.617793 Y35.758049 Z-1.000000
G01 X33.045807 Y34.963832 Z-1.000000
G01 X34.617793 Y34.169615 Z-1.000000
G01 X36.208057 Y34.963832 Z-1.000000
G01 X37.780042 Y34.169615 Z-1.000000
G01 X37.780042 Y32.581180 Z-1.000000
G01 X36.208057 Y33.375398 Z-1.000000
G01 X34.617793 Y32.581180 Z-1.000000
G01 X36.208057 Y31.786963 Z-1.000000
G01 X37.780042 Y30.992746 Z-1.000000
G01 X39.370307 Y31.786963 Z-1.000000
G01 X40.960571 Y30.992746 Z-1.000000
G01 X40.960571 Y29.404312 Z-1.000000
G01 X40.960571 Y27.815877 Z-1.000000
G01 X39.370307 Y28.610095 Z-1.000000
G01 X39.370307 Y30.198529 Z-1.000000
G01 X37.780042 Y29.404312 Z-1.000000
G01 X37.780042 Y27.815877 Z-1.000000
G01 X39.370307 Y27.021660 Z-1.000000
G01 X39.370307 Y25.433226 Z-1.000000
G01 X39.370307 Y23.844791 Z-1.000000
G01 X37.780042 Y24.639009 Z-1.000000
G01 X37.780042 Y26.227443 Z-1.000000
G01 X36.208057 Y25.433226 Z-1.000000
G01 X36.208057 Y23.844791 Z-1.000000
G01 X34.617793 Y23.050574 Z-1.000000
G01 X33.045807 Y23.844791 Z-1.000000
G01 X31.455543 Y24.639009 Z-1.000000
G01 X33.045807 Y25.433226 Z-1.000000
G01 X34.617793 Y24.639009 Z-1.000000
G01 X34.617793 Y26.227443 Z-1.000000
G01 X33.045807 Y27.021660 Z-1.000000
G01 X33.045807 Y28.610095 Z-1.000000
G01 X34.617793 Y29.404312 Z-1.000000
G01 X34.617793 Y27.815877 Z-1.000000
G01 X36.208057 Y27.021660 Z-1.000000
G01 X36.208057 Y28.610095 Z-1.000000
G01 X36.208057 Y30.198529 Z-1.000000
G01 X34.617793 Y30.992746 Z-1.000000
G01 X33.045807 Y30.198529 Z-1.000000
G01 X31.455543 Y30.992746 Z-1.000000
G01 X33.045807 Y31.786963 Z-1.000000
G01 X33.045807 Y33.375398 Z-1.000000
G01 X31.455543 Y32.581180 Z-1.000000
G01 X29.865279 Y31.786963 Z-1.000000
G01 X29.865279 Y30.198529 Z-1.000000
G01 X31.455543 Y29.404312 Z-1.000000
G01 X31.455543 Y27.815877 Z-1.000000
G01 X31.455543 Y26.227443 Z-1.000000
G01 X29.865279 Y27.021660 Z-1.000000
G01 X29.865279 Y28.610095 Z-1.000000
G01 X28.293293 Y27.815877 Z-1.000000
G01 X28.293293 Y26.227443 Z-1.000000
G01 X26.703029 Y25.433226 Z-1.000000
G01 X25.131044 Y26.227443 Z-1.000000
G01 X26.703029 Y27.021660 Z-1.000000
G01 X26.703029 Y28.610095 Z-1.000000
G01 X25.131044 Y27.815877 Z-1.000000
G01 X23.540779 Y27.021660 Z-1.000000
G01 X23.540779 Y25.433226 Z-1.000000
G01 X21.950515 Y24.639009 Z-1.000000
G01 X20.378530 Y25.433226 Z-1.000000
G01 X18.788265 Y26.227443 Z-1.000000
G01 X20.378530 Y27.021660 Z-1.000000
G01 X21.950515 Y26.227443 Z-1.000000
G01 X21.950515 Y27.815877 Z-1.000000
G01 X20.378530 Y28.610095 Z-1.000000
G01 X18.788265 Y27.815877 Z-1.000000
G01 X17.216280 Y28.610095 Z-1.000000
G01 X15.626016 Y29.404312 Z-1.000000
G01 X17.216280 Y30.198529 Z-1.000000
G01 X18.788265 Y29.404312 Z-1.000000
G01 X18.788265 Y30.992746 Z-1.000000
G01 X17.216280 Y31.786963 Z-1.000000
G01 X17.216280 Y33.375398 Z-1.000000
G01 X18.788265 Y34.169615 Z-1.000000
G01 X20.378530 Y34.963832 Z-1.000000
G01 X20.378530 Y33.375398 Z-1.000000
G01 X18.788265 Y32.581180 Z-1.000000
G01 X20.378530 Y31.786963 Z-1.000000
G01 X21.950515 Y32.581180 Z-1.000000
G01 X23.540779 Y31.786963 Z-1.000000
G01 X23.540779 Y30.198529 Z-1.000000
G01 X21.950515 Y30.992746 Z-1.000000
G01 X20.378530 Y30.198529 Z-1.000000
G01 X21.950515 Y29.404312 Z-1.000000
G01 X23.540779 Y28.610095 Z-1.000000
G01 X25.131044 Y29.404312 Z-1.000000
G01 X25.131044 Y30.992746 Z-1.000000
G01 X26.703029 Y31.786963 Z-1.000000
G01 X26.703029 Y30.198529 Z-1.000000
G01 X28.293293 Y29.404312 Z-1.000000
G01 X28.293293 Y30.992746 Z-1.000000
G01 X28.293293 Y32.581180 Z-1.000000
G01 X26.703029 Y33.375398 Z-1.000000
G01 X25.131044 Y32.581180 Z-1.000000
G01 X23.540779 Y33.375398 Z-1.000000
G01 X21.950515 Y34.169615 Z-1.000000
G01 X23.540779 Y34.963832 Z-1.000000
G01 X25.131044 Y34.169615 Z-1.000000
G01 X25.131044 Y35.758049 Z-1.000000
G01 X23.540779 Y36.552266 Z-1.000000
G01 X21.950515 Y35.758049 Z-1.000000
G01 X20.378530 Y36.552266 Z-1.000000
G01 X21.950515 Y37.346484 Z-1.000000
G01 X21.950515 Y38.934918 Z-1.000000
G01 X20.378530 Y38.140701 Z-1.000000
G01 X18.788265 Y37.346484 Z-1.000000
G01 X18.788265 Y35.758049 Z-1.000000
G01 X17.216280 Y34.963832 Z-1.000000
G01 X15.626016 Y35.758049 Z-1.000000
G01 X14.035751 Y36.552266 Z-1.000000
G01 X15.626016 Y37.346484 Z-1.000000
G01 X17.216280 Y36.552266 Z-1.000000
G01 X17.216280 Y38.140701 Z-1.000000
G01 X15.626016 Y38.934918 Z-1.000000
G01 X15.626016 Y40.523352 Z-1.000000
G01 X17.216280 Y41.317570 Z-1.000000
G01 X18.788265 Y42.111787 Z-1.000000
G01 X18.788265 Y40.523352 Z-1.000000
G01 X17.216280 Y39.729135 Z-1.000000
G01 X18.788265 Y38.934918 Z-1.000000
G01 X20.378530 Y39.729135 Z-1.000000
G01 X20.378530 Y41.317570 Z-1.000000
G01 X21.950515 Y42.111787 Z-1.000000
G01 X21.950515 Y40.523352 Z-1.000000
G01 X23.540779 Y39.729135 Z-1.000000
G01 X23.540779 Y41.317570 Z-1.000000
G01 X23.540779 Y42.906004 Z-1.000000
G01 X21.950515 Y43.700221 Z-1.000000
G01 X20.378530 Y42.906004 Z-1.000000
G01 X18.788265 Y43.700221 Z-1.000000
G01 X20.378530 Y44.494438 Z-1.000000
G01 X20.378530 Y46.082873 Z-1.000000
G01 X18.788265 Y45.288656 Z-1.000000
G01 X17.216280 Y44.494438 Z-1.000000
G01 X17.216280 Y42.906004 Z-1.000000
G01 X15.626016 Y42.111787 Z-1.000000
G01 X14.035751 Y42.906004 Z-1.000000
G01 X15.626016 Y43.700221 Z-1.000000
G01 X15.626016 Y45.288656 Z-1.000000
G01 X14.035751 Y44.494438 Z-1.000000
G01 X12.463766 Y43.700221 Z-1.000000
G01 X12.463766 Y42.111787 Z-1.000000
G01 X14.035751 Y41.317570 Z-1.000000
G01 X14.035751 Y39.729135 Z-1.000000
G01 X14.035751 Y38.140701 Z-1.000000
G01 X12.463766 Y38.934918 Z-1.000000
G01 X12.463766 Y40.523352 Z-1.000000
G01 X10.873502 Y39.729135 Z-1.000000
G01 X10.873502 Y38.140701 Z-1.000000
G01 X12.463766 Y37.346484 Z-1.000000
G01 X12.463766 Y35.758049 Z-1.000000
G01 X10.873502 Y36.552266 Z-1.000000
G01 X9.301516 Y35.758049 Z-1.000000
G01 X10.873502 Y34.963832 Z-1.000000
G01 X12.463766 Y34.169615 Z-1.000000
G01 X14.035751 Y34.963832 Z-1.000000
G01 X15.626016 Y34.169615 Z-1.000000
G01 X15.626016 Y32.581180 Z-1.000000
G01 X15.626016 Y30.992746 Z-1.000000
G01 X14.035751 Y31.786963 Z-1.000000
G01 X14.035751 Y33.375398 Z-1.000000
G01 X12.463766 Y32.581180 Z-1.000000
G01 X12.463766 Y30.992746 Z-1.000000
G01 X10.873502 Y30.198529 Z-1.000000
G01 X9.301516 Y30.992746 Z-1.000000
G01 X7.711252 Y31.786963 Z-1.000000
G01 X9.301516 Y32.581180 Z-1.000000
G01 X10.873502 Y31.786963 Z-1.000000
G01 X10.873502 Y33.375398 Z-1.000000
G01 X9.301516 Y34.169615 Z-1.000000
G01 X7.711252 Y33.375398 Z-1.000000
G01 X6.120988 Y34.169615 Z-1.000000
G01 X7.711252 Y34.963832 Z-1.000000
G01 X7.711252 Y36.552266 Z-1.000000
G01 X6.120988 Y35.758049 Z-1.000000
G01 X4.549002 Y34.963832 Z-1.000000
G01 X4.549002 Y33.375398 Z-1.000000
G01 X6.120988 Y32.581180 Z-1.000000
G01 X6.120988 Y30.992746 Z-1.000000
G01 X4.549002 Y31.786963 Z-1.000000
G01 X2.958738 Y30.992746 Z-1.000000
G01 X4.549002 Y30.198529 Z-1.000000
G01 X6.120988 Y29.404312 Z-1.000000
G01 X7.711252 Y30.198529 Z-1.000000
G01 X9.301516 Y29.404312 Z-1.000000
G01 X9.301516 Y27.815877 Z-1.000000
G01 X7.711252 Y28.610095 Z-1.000000
G01 X6.120988 Y27.815877 Z-1.000000
G01 X7.711252 Y27.021660 Z-1.000000
G01 X9.301516 Y26.227443 Z-1.000000
G01 X10.873502 Y27.021660 Z-1.000000
G01 X10.873502 Y28.610095 Z-1.000000
G01 X12.463766 Y29.404312 Z-1.000000
G01 X14.035751 Y30.198529 Z-1.000000
G01 X14.035751 Y28.610095 Z-1.000000
G01 X12.463766 Y27.815877 Z-1.000000
G01 X14.035751 Y27.021660 Z-1.000000
G01 X15.626016 Y27.815877 Z-1.000000
G01 X17.216280 Y27.021660 Z-1.000000
G01 X17.216280 Y25.433226 Z-1.000000
G01 X15.626016 Y26.227443 Z-1.000000
G01 X14.035751 Y25.433226 Z-1.000000
G01 X15.626016 Y24.639009 Z-1.000000
G01 X17.216280 Y23.844791 Z-1.000000
G01 X18.788265 Y24.639009 Z-1.000000
G01 X20.378530 Y23.844791 Z-1.000000
G01 X20.378530 Y22.256357 Z-1.000000
G01 X20.378530 Y20.667923 Z-1.000000
G01 X18.788265 Y21.462140 Z-1.000000
G01 X18.788265 Y23.050574 Z-1.000000
G01 X17.216280 Y22.256357 Z-1.000000
G01 X17.216280 Y20.667923 Z-1.000000
G01 X15.626016 Y19.873705 Z-1.000000
G01 X14.035751 Y20.667923 Z-1.000000
G01 X12.463766 Y21.462140 Z-1.000000
G01 X14.035751 Y22.256357 Z-1.000000
G01 X15.626016 Y21.462140 Z-1.000000
G01 X15.626016 Y23.050574 Z-1.000000
G01 X14.035751 Y23.844791 Z-1.000000
G01 X12.463766 Y23.050574 Z-1.000000
G01 X10.873502 Y23.844791 Z-1.000000
G01 X12.463766 Y24.639009 Z-1.000000
G01 X12.463766 Y26.227443 Z-1.000000
G01 X10.873502 Y25.433226 Z-1.000000
G01 X9.301516 Y24.639009 Z-1.000000
G01 X9.301516 Y23.050574 Z-1.000000
G01 X10.873502 Y22.256357 Z-1.000000
G01 X10.873502 Y20.667923 Z-1.000000
G01 X9.301516 Y21.462140 Z-1.000000
G01 X7.711252 Y20.667923 Z-1.000000
G01 X9.301516 Y19.873705 Z-1.000000
G01 X10.873502 Y19.079488 Z-1.000000
G01 X12.463766 Y19.873705 Z-1.000000
G01 X14.035751 Y19.079488 Z-1.000000
G01 X14.035751 Y17.491054 Z-1.000000
G01 X12.463766 Y18.285271 Z-1.000000
G01 X10.873502 Y17.491054 Z-1.000000
G01 X12.463766 Y16.696837 Z-1.000000
G01 X14.035751 Y15.902619 Z-1.000000
G01 X15.626016 Y16.696837 Z-1.000000
G01 X15.626016 Y18.285271 Z-1.000000
G01 X17.216280 Y19.079488 Z-1.000000
G01 X18.788265 Y19.873705 Z-1.000000
G01 X18.788265 Y18.285271 Z-1.000000
G01 X17.216280 Y17.491054 Z-1.000000
G01 X18.788265 Y16.696837 Z-1.000000
G01 X20.378530 Y17.491054 Z-1.000000
G01 X20.378530 Y19.079488 Z-1.000000
G01 X21.950515 Y19.873705 Z-1.000000
G01 X21.950515 Y18.285271 Z-1.000000
G01 X23.540779 Y17.491054 Z-1.000000
G01 X23.540779 Y19.079488 Z-1.000000
G01 X23.540779 Y20.667923 Z-1.000000
G01 X21.950515 Y21.462140 Z-1.000000
G01 X21.950515 Y23.050574 Z-1.000000
G01 X23.540779 Y23.844791 Z-1.000000
G01 X25.131044 Y24.639009 Z-1.000000
G01 X25.131044 Y23.050574 Z-1.000000
G01 X23.540779 Y22.256357 Z-1.000000
G01 X25.131044 Y21.462140 Z-1.000000
G01 X26.703029 Y22.256357 Z-1.000000
G01 X26.703029 Y23.844791 Z-1.000000
G01 X28.293293 Y24.639009 Z-1.000000
G01 X29.865279 Y25.433226 Z-1.000000
G01 X29.865279 Y23.844791 Z-1.000000
G01 X28.293293 Y23.050574 Z-1.000000
G01 X29.865279 Y22.256357 Z-1.000000
G01 X31.455543 Y23.050574 Z-1.000000
G01 X33.045807 Y22.256357 Z-1.000000
G01 X33.045807 Y20.667923 Z-1.000000
G01 X33.045807 Y19.079488 Z-1.000000
G01 X31.455543 Y19.873705 Z-1.000000
G01 X31.455543 Y21.462140 Z-1.000000
G01 X29.865279 Y20.667923 Z-1.000000
G01 X29.865279 Y19.079488 Z-1.000000
G01 X28.293293 Y18.285271 Z-1.000000
G01 X26.703029 Y19.079488 Z-1.000000
G01 X28.293293 Y19.873705 Z-1.000000
G01 X28.293293 Y21.462140 Z-1.000000
G01 X26.703029 Y20.667923 Z-1.000000
G01 X25.131044 Y19.873705 Z-1.000000
G01 X25.131044 Y18.285271 Z-1.000000
G01 X26.703029 Y17.491054 Z-1.000000
G01 X26.703029 Y15.902619 Z-1.000000
G01 X25.131044 Y16.696837 Z-1.000000
G01 X23.540779 Y15.902619 Z-1.000000
G01 X25.131044 Y15.108402 Z-1.000000
G01 X26.703029 Y14.314185 Z-1.000000
G01 X28.293293 Y15.108402 Z-1.000000
G01 X28.293293 Y16.696837 Z-1.000000
G01 X29.865279 Y17.491054 Z-1.000000
G01 X31.455543 Y18.285271 Z-1.000000
G01 X31.455543 Y16.696837 Z-1.000000
G01 X29.865279 Y15.902619 Z-1.000000
G01 X31.455543 Y15.108402 Z-1.000000
G01 X33.045807 Y15.902619 Z-1.000000
G01 X33.045807 Y17.491054 Z-1.000000
G01 X34.617793 Y18.285271 Z-1.000000
G01 X34.617793 Y16.696837 Z-1.000000
G01 X36.208057 Y15.902619 Z-1.000000
G01 X36.208057 Y17.491054 Z-1.000000
G01 X36.208057 Y19.079488 Z-1.000000
G01 X34.617793 Y19.873705 Z-1.000000
G01 X34.617793 Y21.462140 Z-1.000000
G01 X36.208057 Y22.256357 Z-1.000000
G01 X37.780042 Y23.050574 Z-1.000000
G01 X37.780042 Y21.462140 Z-1.000000
G01 X36.208057 Y20.667923 Z-1.000000
G01 X37.780042 Y19.873705 Z-1.000000
G01 X39.370307 Y20.667923 Z-1.000000
G01 X40.960571 Y19.873705 Z-1.000000
G01 X40.960571 Y18.285271 Z-1.000000
G01 X40.960571 Y16.696837 Z-1.000000
G01 X39.370307 Y17.491054 Z-1.000000
G01 X39.370307 Y19.079488 Z-1.000000
G01 X37.780042 Y18.285271 Z-1.000000
G01 X37.780042 Y16.696837 Z-1.000000
G01 X39.370307 Y15.902619 Z-1.000000
G01 X39.370307 Y14.314185 Z-1.000000
G01 X37.780042 Y15.108402 Z-1.000000
G01 X36.208057 Y14.314185 Z-1.000000
G01 X37.780042 Y13.519968 Z-1.000000
G01 X39.370307 Y12.725751 Z-1.000000
G01 X40.960571 Y13.519968 Z-1.000000
G01 X40.960571 Y15.108402 Z-1.000000
G01 X42.532556 Y15.902619 Z-1.000000
G01 X42.532556 Y14.314185 Z-1.000000
G01 X44.122820 Y13.519968 Z-1.000000
G01 X44.122820 Y15.108402 Z-1.000000
G01 X44.122820 Y16.696837 Z-1.000000
G01 X42.532556 Y17.491054 Z-1.000000
G01 X42.532556 Y19.079488 Z-1.000000
G01 X44.122820 Y19.873705 Z-1.000000
G01 X44.122820 Y18.285271 Z-1.000000
G01 X45.694806 Y17.491054 Z-1.000000
G01 X45.694806 Y19.079488 Z-1.000000
G01 X45.694806 Y20.667923 Z-1.000000
G01 X44.122820 Y21.462140 Z-1.000000
G01 X42.532556 Y20.667923 Z-1.000000
G01 X40.960571 Y21.462140 Z-1.000000
G01 X39.370307 Y22.256357 Z-1.000000
G01 X40.960571 Y23.050574 Z-1.000000
G01 X42.532556 Y22.256357 Z-1.000000
G01 X42.532556 Y23.844791 Z-1.000000
G01 X40.960571 Y24.639009 Z-1.000000
G01 X40.960571 Y26.227443 Z-1.000000
G01 X42.532556 Y27.021660 Z-1.000000
G01 X42.532556 Y25.433226 Z-1.000000
G01 X44.122820 Y24.639009 Z-1.000000
G01 X44.122820 Y26.227443 Z-1.000000
G01 X44.122820 Y27.815877 Z-1.000000
G01 X42.532556 Y28.610095 Z-1.000000
G01 X42.532556 Y30.198529 Z-1.000000
G01 X44.122820 Y30.992746 Z-1.000000
G01 X45.694806 Y31.786963 Z-1.000000
G01 X45.694806 Y30.198529 Z-1.000000
G01 X44.122820 Y29.404312 Z-1.000000
G01 X45.694806 Y28.610095 Z-1.000000
G01 X47.285070 Y29.404312 Z-1.000000
G01 X47.285070 Y30.992746 Z-1.000000
G01 X48.875334 Y31.786963 Z-1.000000
G01 X50.447320 Y32.581180 Z-1.000000
G01 X50.447320 Y30.992746 Z-1.000000
G01 X48.875334 Y30.198529 Z-1.000000
G01 X50.447320 Y29.404312 Z-1.000000
G01 X52.037584 Y30.198529 Z-1.000000
G01 X53.609569 Y29.404312 Z-1.000000
G01 X53.609569 Y27.815877 Z-1.000000
G01 X53.609569 Y26.227443 Z-1.000000
G01 X52.037584 Y27.021660 Z-1.000000
G01 X52.037584 Y28.610095 Z-1.000000
G01 X50.447320 Y27.815877 Z-1.000000
G01 X50.447320 Y26.227443 Z-1.000000
G01 X48.875334 Y25.433226 Z-1.000000
G01 X47.285070 Y26.227443 Z-1.000000
G01 X48.875334 Y27.021660 Z-1.000000
G01 X48.875334 Y28.610095 Z-1.000000
G01 X47.285070 Y27.815877 Z-1.000000
G01 X45.694806 Y27.021660 Z-1.000000
G01 X45.694806 Y25.433226 Z-1.000000
G01 X47.285070 Y24.639009 Z-1.000000
G01 X47.285070 Y23.050574 Z-1.000000
G01 X45.694806 Y23.844791 Z-1.000000
G01 X44.122820 Y23.050574 Z-1.000000
G01 X45.694806 Y22.256357 Z-1.000000
G01 X47.285070 Y21.462140 Z-1.000000
G01 X48.875334 Y22.256357 Z-1.000000
G01 X48.875334 Y23.844791 Z-1.000000
G01 X50.447320 Y24.639009 Z-1.000000
G01 X52.037584 Y25.433226 Z-1.000000
G01 X52.037584 Y23.844791 Z-1.000000
G01 X50.447320 Y23.050574 Z-1.000000
G01 X52.037584 Y22.256357 Z-1.000000
G01 X53.609569 Y23.050574 Z-1.000000
G01 X55.199834 Y22.256357 Z-1.000000
G01 X55.199834 Y20.667923 Z-1.000000
G01 X53.609569 Y21.462140 Z-1.000000
G01 X52.037584 Y20.667923 Z-1.000000
G01 X53.609569 Y19.873705 Z-1.000000
G01 X55.199834 Y19.079488 Z-1.000000
G01 X56.790098 Y19.873705 Z-1.000000
G01 X58.362083 Y19.079488 Z-1.000000
G01 X58.362083 Y17.491054 Z-1.000000
G01 X58.362083 Y15.902619 Z-1.000000
G01 X56.790098 Y16.696837 Z-1.000000
G01 X56.790098 Y18.285271 Z-1.000000
G01 X55.199834 Y17.491054 Z-1.000000
G01 X55.199834 Y15.902619 Z-1.000000
G01 X56.790098 Y15.108402 Z-1.000000
G01 X56.790098 Y13.519968 Z-1.000000
G01 X56.790098 Y11.931533 Z-1.000000
G01 X55.199834 Y12.725751 Z-1.000000
G01 X55.199834 Y14.314185 Z-1.000000
G01 X53.609569 Y13.519968 Z-1.000000
G01 X53.609569 Y11.931533 Z-1.000000
G01 X52.037584 Y11.137316 Z-1.000000
G01 X50.447320 Y11.931533 Z-1.000000
G01 X48.875334 Y12.725751 Z-1.000000
G01 X50.447320 Y13.519968 Z-1.000000
G01 X52.037584 Y12.725751 Z-1.000000
G01 X52.037584 Y14.314185 Z-1.000000
G01 X50.447320 Y15.108402 Z-1.000000
G01 X50.447320 Y16.696837 Z-1.000000
G01 X52.037584 Y17.491054 Z-1.000000
G01 X52.037584 Y15.902619 Z-1.000000
G01 X53.609569 Y15.108402 Z-1.000000
G01 X53.609569 Y16.696837 Z-1.000000
G01 X53.609569 Y18.285271 Z-1.000000
G01 X52.037584 Y19.079488 Z-1.000000
G01 X50.447320 Y18.285271 Z-1.000000
G01 X48.875334 Y19.079488 Z-1.000000
G01 X50.447320 Y19.873705 Z-1.000000
G01 X50.447320 Y21.462140 Z-1.000000
G01 X48.875334 Y20.667923 Z-1.000000
G01 X47.285070 Y19.873705 Z-1.000000
G01 X47.285070 Y18.285271 Z-1.000000
G01 X48.875334 Y17.491054 Z-1.000000
G01 X48.875334 Y15.902619 Z-1.000000
G01 X48.875334 Y14.314185 Z-1.000000
G01 X47.285070 Y15.108402 Z-1.000000
G01 X47.285070 Y16.696837 Z-1.000000
G01 X45.694806 Y15.902619 Z-1.000000
G01 X45.694806 Y14.314185 Z-1.000000
G01 X47.285070 Y13.519968 Z-1.000000
G01 X47.285070 Y11.931533 Z-1.000000
G01 X45.694806 Y12.725751 Z-1.000000
G01 X44.122820 Y11.931533 Z-1.000000
G01 X45.694806 Y11.137316 Z-1.000000
G01 X47.285070 Y10.343099 Z-1.000000
G01 X48.875334 Y11.137316 Z-1.000000
G01 X50.447320 Y10.343099 Z-1.000000
G01 X50.447320 Y8.754665 Z-1.000000
G01 X50.447320 Y7.166230 Z-1.000000
G01 X48.875334 Y7.960448 Z-1.000000
G01 X48.875334 Y9.548882 Z-1.000000
G01 X47.285070 Y8.754665 Z-1.000000
G01 X47.285070 Y7.166230 Z-1.000000
G01 X45.694806 Y6.372013 Z-1.000000
G01 X44.122820 Y7.166230 Z-1.000000
G01 X42.532556 Y7.960448 Z-1.000000
G01 X44.122820 Y8.754665 Z-1.000000
G01 X45.694806 Y7.960448 Z-1.000000
G01 X45.694806 Y9.548882 Z-1.000000
G01 X44.122820 Y10.343099 Z-1.000000
G01 X42.532556 Y9.548882 Z-1.000000
G01 X40.960571 Y10.343099 Z-1.000000
G01 X42.532556 Y11.137316 Z-1.000000
G01 X42.532556 Y12.725751 Z-1.000000
G01 X40.960571 Y11.931533 Z-1.000000
G01 X39.370307 Y11.137316 Z-1.000000
G01 X39.370307 Y9.548882 Z-1.000000
G01 X40.960571 Y8.754665 Z-1.000000
G01 X40.960571 Y7.166230 Z-1.000000
G01 X39.370307 Y7.960448 Z-1.000000
G01 X37.780042 Y7.166230 Z-1.000000
G01 X39.370307 Y6.372013 Z-1.000000
G01 X40.960571 Y5.577796 Z-1.000000
G01 X42.532556 Y6.372013 Z-1.000000
G01 X44.122820 Y5.577796 Z-1.000000
G01 X44.122820 Y3.989362 Z-1.000000
G01 X42.532556 Y4.783579 Z-1.000000
G01 X40.960571 Y3.989362 Z-1.000000
G01 X42.532556 Y3.195144 Z-1.000000
G01 X44.122820 Y2.400927 Z-1.000000
G01 X45.694806 Y3.195144 Z-1.000000
G01 X45.694806 Y4.783579 Z-1.000000
G01 X47.285070 Y5.577796 Z-1.000000
G01 X48.875334 Y6.372013 Z-1.000000
G01 X48.875334 Y4.783579 Z-1.000000
G01 X47.285070 Y3.989362 Z-1.000000
G01 X48.875334 Y3.195144 Z-1.000000
G01 X50.447320 Y3.989362 Z-1.000000
G01 X50.447320 Y5.577796 Z-1.000000
G01 X52.037584 Y6.372013 Z-1.000000
G01 X52.037584 Y4.783579 Z-1.000000
G01 X53.609569 Y3.989362 Z-1.000000
G01 X53.609569 Y5.577796 Z-1.000000
G01 X53.609569 Y7.166230 Z-1.000000
G01 X52.037584 Y7.960448 Z-1.000000
G01 X52.037584 Y9.548882 Z-1.000000
G01 X53.609569 Y10.343099 Z-1.000000
G01 X55.199834 Y11.137316 Z-1.000000
G01 X55.199834 Y9.548882 Z-1.000000
G01 X53.609569 Y8.754665 Z-1.000000
G01 X55.199834 Y7.960448 Z-1.000000
G01 X56.790098 Y8.754665 Z-1.000000
G01 X58.362083 Y7.960448 Z-1.000000
G01 X58.362083 Y6.372013 Z-1.000000
G01 X58.362083 Y4.783579 Z-1.000000
G01 X56.790098 Y5.577796 Z-1.000000
G01 X56.790098 Y7.166230 Z-1.000000
G01 X55.199834 Y6.372013 Z-1.000000
G01 X55.199834 Y4.783579 Z-1.000000
G01 X56.790098 Y3.989362 Z-1.000000
G01 X56.790098 Y2.400927 Z-1.000000
G01 X55.199834 Y3.195144 Z-1.000000
G01 X53.609569 Y2.400927 Z-1.000000
G01 X55.199834 Y1.606710 Z-1.000000
G01 X56.790098 Y0.812493 Z-1.000000
G01 X58.362083 Y1.606710 Z-1.000000
G01 X58.362083 Y3.195144 Z-1.000000
G01 X59.952348 Y3.989362 Z-1.000000
G01 X59.952348 Y2.400927 Z-1.000000
G01 X61.524333 Y1.606710 Z-1.000000
G01 X61.524333 Y3.195144 Z-1.000000
G01 X61.524333 Y4.783579 Z-1.000000
G01 X59.952348 Y5.577796 Z-1.000000
G01 X59.952348 Y7.166230 Z-1.000000
G01 X61.524333 Y7.960448 Z-1.000000
G01 X61.524333 Y6.372013 Z-1.000000
G01 X63.114597 Y5.577796 Z-1.000000
G01 X63.114597 Y7.166230 Z-1.000000
G01 X63.114597 Y8.754665 Z-1.000000
G01 X61.524333 Y9.548882 Z-1.000000
G01 X59.952348 Y8.754665 Z-1.000000
G01 X58.362083 Y9.548882 Z-1.000000
G01 X56.790098 Y10.343099 Z-1.000000
G01 X58.362083 Y11.137316 Z-1.000000
G01 X59.952348 Y10.343099 Z-1.000000
G01 X59.952348 Y11.931533 Z-1.000000
G01 X58.362083 Y12.725751 Z-1.000000
G01 X58.362083 Y14.314185 Z-1.000000
G01 X59.952348 Y15.108402 Z-1.000000
G01 X59.952348 Y13.519968 Z-1.000000
G01 X61.524333 Y12.725751 Z-1.000000
G01 X61.524333 Y14.314185 Z-1.000000
G01 X61.524333 Y15.902619 Z-1.000000
G01 X59.952348 Y16.696837 Z-1.000000
G01 X59.952348 Y18.285271 Z-1.000000
G01 X61.524333 Y19.079488 Z-1.000000
G01 X63.114597 Y19.873705 Z-1.000000
G01 X63.114597 Y18.285271 Z-1.000000
G01 X61.524333 Y17.491054 Z-1.000000
G01 X63.114597 Y16.696837 Z-1.000000
G01 X64.704862 Y17.491054 Z-1.000000
G01 X66.276847 Y16.696837 Z-1.000000
G01 X66.276847 Y15.108402 Z-1.000000
G01 X66.276847 Y13.519968 Z-1.000000
G01 X64.704862 Y14.314185 Z-1.000000
G01 X64.704862 Y15.902619 Z-1.000000
G01 X63.114597 Y15.108402 Z-1.000000
G01 X63.114597 Y13.519968 Z-1.000000
G01 X64.704862 Y12.725751 Z-1.000000
G01 X64.704862 Y11.137316 Z-1.000000
G01 X63.114597 Y11.931533 Z-1.000000
G01 X61.524333 Y11.137316 Z-1.000000
G01 X63.114597 Y10.343099 Z-1.000000
G01 X64.704862 Y9.548882 Z-1.000000
G01 X66.276847 Y10.343099 Z-1.000000
G01 X66.276847 Y11.931533 Z-1.000000
G01 X67.867111 Y12.725751 Z-1.000000
G01 X67.867111 Y11.137316 Z-1.000000
G01 X69.439097 Y10.343099 Z-1.000000
G01 X69.439097 Y11.931533 Z-1.000000
G01 X69.439097 Y13.519968 Z-1.000000
G01 X67.867111 Y14.314185 Z-1.000000
G01 X67.867111 Y15.902619 Z-1.000000
G01 X69.439097 Y16.696837 Z-1.000000
G01 X69.439097 Y15.108402 Z-1.000000
G01 X71.029361 Y14.314185 Z-1.000000
G01 X71.029361 Y15.902619 Z-1.000000
G01 X71.029361 Y17.491054 Z-1.000000
G01 X69.439097 Y18.285271 Z-1.000000
G01 X67.867111 Y17.491054 Z-1.000000
G01 X66.276847 Y18.285271 Z-1.000000
G01 X64.704862 Y19.079488 Z-1.000000
G01 X66.276847 Y19.873705 Z-1.000000
G01 X67.867111 Y19.079488 Z-1.000000
G01 X67.867111 Y20.667923 Z-1.000000
G01 X66.276847 Y21.462140 Z-1.000000
G01 X64.704862 Y20.667923 Z-1.000000
G01 X63.114597 Y21.462140 Z-1.000000
G01 X64.704862 Y22.256357 Z-1.000000
G01 X64.704862 Y23.844791 Z-1.000000
G01 X63.114597 Y23.050574 Z-1.000000
G01 X61.524333 Y22.256357 Z-1.000000
G01 X61.524333 Y20.667923 Z-1.000000
G01 X59.952348 Y19.873705 Z-1.000000
G01 X58.362083 Y20.667923 Z-1.000000
G01 X56.790098 Y21.462140 Z-1.000000
G01 X58.362083 Y22.256357 Z-1.000000
G01 X59.952348 Y21.462140 Z-1.000000
G01 X59.952348 Y23.050574 Z-1.000000
G01 X58.362083 Y23.844791 Z-1.000000
G01 X56.790098 Y23.050574 Z-1.000000
G01 X55.199834 Y23.844791 Z-1.000000
G01 X53.609569 Y24.639009 Z-1.000000
G01 X55.199834 Y25.433226 Z-1.000000
G01 X56.790098 Y24.639009 Z-1.000000
G01 X56.790098 Y26.227443 Z-1.000000
G01 X55.199834 Y27.021660 Z-1.000000
G01 X55.199834 Y28.610095 Z-1.000000
G01 X56.790098 Y29.404312 Z-1.000000
G01 X58.362083 Y30.198529 Z-1.000000
G01 X58.362083 Y28.610095 Z-1.000000
G01 X56.790098 Y27.815877 Z-1.000000
G01 X58.362083 Y27.021660 Z-1.000000
G01 X59.952348 Y27.815877 Z-1.000000
G01 X61.524333 Y27.021660 Z-1.000000
G01 X61.524333 Y25.433226 Z-1.000000
G01 X59.952348 Y26.227443 Z-1.000000
G01 X58.362083 Y25.433226 Z-1.000000
G01 X59.952348 Y24.639009 Z-1.000000
G01 X61.524333 Y23.844791 Z-1.000000
G01 X63.114597 Y24.639009 Z-1.000000
G01 X63.114597 Y26.227443 Z-1.000000
G01 X64.704862 Y27.021660 Z-1.000000
G01 X64.704862 Y25.433226 Z-1.000000
G01 X66.276847 Y24.639009 Z-1.000000
G01 X66.276847 Y26.227443 Z-1.000000
G01 X66.276847 Y27.815877 Z-1.000000
G01 X64.704862 Y28.610095 Z-1.000000
G01 X63.114597 Y27.815877 Z-1.000000
G01 X61.524333 Y28.610095 Z-1.000000
G01 X59.952348 Y29.404312 Z-1.000000
G01 X61.524333 Y30.198529 Z-1.000000
G01 X63.114597 Y29.404312 Z-1.000000
G01 X63.114597 Y30.992746 Z-1.000000
G01 X61.524333 Y31.786963 Z-1.000000
G01 X61.524333 Y33.375398 Z-1.000000
G01 X63.114597 Y34.169615 Z-1.000000
G01 X63.114597 Y32.581180 Z-1.000000
G01 X64.704862 Y31.786963 Z-1.000000
G01 X64.704862 Y33.375398 Z-1.000000
G01 X64.704862 Y34.963832 Z-1.000000
G01 X63.114597 Y35.758049 Z-1.000000
G01 X63.114597 Y37.346484 Z-1.000000
G01 X64.704862 Y38.140701 Z-1.000000
G01 X66.276847 Y38.934918 Z-1.000000
G01 X66.276847 Y37.346484 Z-1.000000
G01 X64.704862 Y36.552266 Z-1.000000
G01 X66.276847 Y35.758049 Z-1.000000
G01 X67.867111 Y36.552266 Z-1.000000
G01 X69.439097 Y35.758049 Z-1.000000
G01 X69.439097 Y34.169615 Z-1.000000
G01 X69.439097 Y32.581180 Z-1.000000
G01 X67.867111 Y33.375398 Z-1.000000
G01 X67.867111 Y34.963832 Z-1.000000
G01 X66.276847 Y34.169615 Z-1.000000
G01 X66.276847 Y32.581180 Z-1.000000
G01 X67.867111 Y31.786963 Z-1.000000
G01 X67.867111 Y30.198529 Z-1.000000
G01 X66.276847 Y30.992746 Z-1.000000
G01 X64.704862 Y30.198529 Z-1.000000
G01 X66.276847 Y29.404312 Z-1.000000
G01 X67.867111 Y28.610095 Z-1.000000
G01 X69.439097 Y29.404312 Z-1.000000
G01 X69.439097 Y30.992746 Z-1.000000
G01 X71.029361 Y31.786963 Z-1.000000
G01 X71.029361 Y30.198529 Z-1.000000
G01 X72.619625 Y29.404312 Z-1.000000
G01 X72.619625 Y30.992746 Z-1.000000
G01 X72.619625 Y32.581180 Z-1.000000
G01 X71.029361 Y33.375398 Z-1.000000
G01 X71.029361 Y34.963832 Z-1.000000
G01 X72.619625 Y35.758049 Z-1.000000
G01 X72.619625 Y34.169615 Z-1.000000
G01 X74.191611 Y33.375398 Z-1.000000
G01 X74.191611 Y34.963832 Z-1.000000
G01 X74.191611 Y36.552266 Z-1.000000
G01 X72.619625 Y37.346484 Z-1.000000
G01 X71.029361 Y36.552266 Z-1.000000
G01 X69.439097 Y37.346484 Z-1.000000
G01 X67.867111 Y38.140701 Z-1.000000
G01 X69.439097 Y38.934918 Z-1.000000
G01 X71.029361 Y38.140701 Z-1.000000
G01 X71.029361 Y39.729135 Z-1.000000
G01 X69.439097 Y40.523352 Z-1.000000
G01 X69.439097 Y42.111787 Z-1.000000
G01 X71.029361 Y42.906004 Z-1.000000
G01 X71.029361 Y41.317570 Z-1.000000
G01 X72.619625 Y40.523352 Z-1.000000
G01 X72.619625 Y42.111787 Z-1.000000
G01 X72.619625 Y43.700221 Z-1.000000
G01 X71.029361 Y44.494438 Z-1.000000
G01 X71.029361 Y46.082873 Z-1.000000
G01 X72.619625 Y46.877090 Z-1.000000
G01 X74.191611 Y47.671307 Z-1.000000
G01 X74.191611 Y46.082873 Z-1.000000
G01 X72.619625 Y45.288656 Z-1.000000
G01 X74.191611 Y44.494438 Z-1.000000
G01 X75.781875 Y45.288656 Z-1.000000
G01 X75.781875 Y46.877090 Z-1.000000
G01 X77.353860 Y47.671307 Z-1.000000
G01 X78.944125 Y48.465524 Z-1.000000
G01 X78.944125 Y46.877090 Z-1.000000
G01 X77.353860 Y46.082873 Z-1.000000
G01 X78.944125 Y45.288656 Z-1.000000
G01 X80.534389 Y46.082873 Z-1.000000
G01 X82.106374 Y45.288656 Z-1.000000
G01 X82.106374 Y43.700221 Z-1.000000
G01 X82.106374 Y42.111787 Z-1.000000
G01 X80.534389 Y42.906004 Z-1.000000
G01 X80.534389 Y44.494438 Z-1.000000
G01 X78.944125 Y43.700221 Z-1.000000
G01 X78.944125 Y42.111787 Z-1.000000
G01 X77.353860 Y41.317570 Z-1.000000
G01 X75.781875 Y42.111787 Z-1.000000
G01 X77.353860 Y42.906004 Z-1.000000
G01 X77.353860 Y44.494438 Z-1.000000
G01 X75.781875 Y43.700221 Z-1.000000
G01 X74.191611 Y42.906004 Z-1.000000
G01 X74.191611 Y41.317570 Z-1.000000
G01 X75.781875 Y40.523352 Z-1.000000
G01 X75.781875 Y38.934918 Z-1.000000
G01 X74.191611 Y39.729135 Z-1.000000
G01 X72.619625 Y38.934918 Z-1.000000
G01 X74.191611 Y38.140701 Z-1.000000
G01 X75.781875 Y37.346484 Z-1.000000
G01 X77.353860 Y38.140701 Z-1.000000
G01 X77.353860 Y39.729135 Z-1.000000
G01 X78.944125 Y40.523352 Z-1.000000
G01 X80.534389 Y41.317570 Z-1.000000
G01 X80.534389 Y39.729135 Z-1.000000
G01 X78.944125 Y38.934918 Z-1.000000
G01 X80.534389 Y38.140701 Z-1.000000
G01 X82.106374 Y38.934918 Z-1.000000
G01 X83.696639 Y38.140701 Z-1.000000
G01 X83.696639 Y36.552266 Z-1.000000
G01 X82.106374 Y37.346484 Z-1.000000
G01 X80.534389 Y36.552266 Z-1.000000
G01 X82.106374 Y35.758049 Z-1.000000
G01 X83.696639 Y34.963832 Z-1.000000
G01 X85.268624 Y35.758049 Z-1.000000
G01 X86.858888 Y34.963832 Z-1.000000
G01 X86.858888 Y33.375398 Z-1.000000
G01 X86.858888 Y31.786963 Z-1.000000
G01 X85.268624 Y32.581180 Z-1.000000
G01 X85.268624 Y34.169615 Z-1.000000
G01 X83.696639 Y33.375398 Z-1.000000
G01 X83.696639 Y31.786963 Z-1.000000
G01 X85.268624 Y30.992746 Z-1.000000
G01 X85.268624 Y29.404312 Z-1.000000
G01 X85.268624 Y27.815877 Z-1.000000
G01 X83.696639 Y28.610095 Z-1.000000
G01 X83.696639 Y30.198529 Z-1.000000
G01 X82.106374 Y29.404312 Z-1.000000
G01 X82.106374 Y27.815877 Z-1.000000
G01 X80.534389 Y27.021660 Z-1.000000
G01 X78.944125 Y27.815877 Z-1.000000
G01 X77.353860 Y28.610095 Z-1.000000
G01 X78.944125 Y29.404312 Z-1.000000
G01 X80.534389 Y28.610095 Z-1.000000
G01 X80.534389 Y30.198529 Z-1.000000
G01 X78.944125 Y30.992746 Z-1.000000
G01 X78.944125 Y32.581180 Z-1.000000
G01 X80.534389 Y33.375398 Z-1.000000
G01 X80.534389 Y31.786963 Z-1.000000
G01 X82.106374 Y30.992746 Z-1.000000
G01 X82.106374 Y32.581180 Z-1.000000
G01 X82.106374 Y34.169615 Z-1.000000
G01 X80.534389 Y34.963832 Z-1.000000
G01 X78.944125 Y34.169615 Z-1.000000
G01 X77.353860 Y34.963832 Z-1.000000
G01 X78.944125 Y35.758049 Z-1.000000
G01 X78.944125 Y37.346484 Z-1.000000
G01 X77.353860 Y36.552266 Z-1.000000
G01 X75.781875 Y35.758049 Z-1.000000
G01 X75.781875 Y34.169615 Z-1.000000
G01 X77.353860 Y33.375398 Z-1.000000
G01 X77.353860 Y31.786963 Z-1.000000
G01 X77.353860 Y30.198529 Z-1.000000
G01 X75.781875 Y30.992746 Z-1.000000
G01 X75.781875 Y32.581180 Z-1.000000
G01 X74.191611 Y31.786963 Z-1.000000
G01 X74.191611 Y30.198529 Z-1.000000
G01 X75.781875 Y29.404312 Z-1.000000
G01 X75.781875 Y27.815877 Z-1.000000
G01 X74.191611 Y28.610095 Z-1.000000
G01 X72.619625 Y27.815877 Z-1.000000
G01 X74.191611 Y27.021660 Z-1.000000
G01 X75.781875 Y26.227443 Z-1.000000
G01 X77.353860 Y27.021660 Z-1.000000
G01 X78.944125 Y26.227443 Z-1.000000
G01 X78.944125 Y24.639009 Z-1.000000
G01 X78.944125 Y23.050574 Z-1.000000
G01 X77.353860 Y23.844791 Z-1.000000
G01 X77.353860 Y25.433226 Z-1.000000
G01 X75.781875 Y24.639009 Z-1.000000
G01 X75.781875 Y23.050574 Z-1.000000
G01 X74.191611 Y22.256357 Z-1.000000
G01 X72.619625 Y23.050574 Z-1.000000
G01 X71.029361 Y23.844791 Z-1.000000
G01 X72.619625 Y24.639009 Z-1.000000
G01 X74.191611 Y23.844791 Z-1.000000
G01 X74.191611 Y25.433226 Z-1.000000
G01 X72.619625 Y26.227443 Z-1.000000
G01 X71.029361 Y25.433226 Z-1.000000
G01 X69.439097 Y26.227443 Z-1.000000
G01 X71.029361 Y27.021660 Z-1.000000
G01 X71.029361 Y28.610095 Z-1.000000
G01 X69.439097 Y27.815877 Z-1.000000
G01 X67.867111 Y27.021660 Z-1.000000
G01 X67.867111 Y25.433226 Z-1.000000
G01 X69.439097 Y24.639009 Z-1.000000
G01 X69.439097 Y23.050574 Z-1.000000
G01 X67.867111 Y23.844791 Z-1.000000
G01 X66.276847 Y23.050574 Z-1.000000
G01 X67.867111 Y22.256357 Z-1.000000
G01 X69.439097 Y21.462140 Z-1.000000
G01 X71.029361 Y22.256357 Z-1.000000
G01 X72.619625 Y21.462140 Z-1.000000
G01 X72.619625 Y19.873705 Z-1.000000
G01 X71.029361 Y20.667923 Z-1.000000
G01 X69.439097 Y19.873705 Z-1.000000
G01 X71.029361 Y19.079488 Z-1.000000
G01 X72.619625 Y18.285271 Z-1.000000
G01 X74.191611 Y19.079488 Z-1.000000
G01 X74.191611 Y20.667923 Z-1.000000
G01 X75.781875 Y21.462140 Z-1.000000
G01 X77.353860 Y22.256357 Z-1.000000
G01 X77.353860 Y20.667923 Z-1.000000
G01 X75.781875 Y19.873705 Z-1.000000
G01 X77.353860 Y19.079488 Z-1.000000
G01 X78.944125 Y19.873705 Z-1.000000
G01 X78.944125 Y21.462140 Z-1.000000
G01 X80.534389 Y22.256357 Z-1.000000
G01 X80.534389 Y20.667923 Z-1.000000
G01 X82.106374 Y19.873705 Z-1.000000
G01 X82.106374 Y21.462140 Z-1.000000
G01 X82.106374 Y23.050574 Z-1.000000
G01 X80.534389 Y23.844791 Z-1.000000
G01 X80.534389 Y25.433226 Z-1.000000
G01 X82.106374 Y26.227443 Z-1.000000
G01 X83.696639 Y27.021660 Z-1.000000
G01 X83.696639 Y25.433226 Z-1.000000
G01 X82.106374 Y24.639009 Z-1.000000
G01 X83.696639 Y23.844791 Z-1.000000
G01 X85.268624 Y24.639009 Z-1.000000
G01 X86.858888 Y23.844791 Z-1.000000
G01 X86.858888 Y22.256357 Z-1.000000
G01 X86.858888 Y20.667923 Z-1.000000
G01 X85.268624 Y21.462140 Z-1.000000
G01 X85.268624 Y23.050574 Z-1.000000
G01 X83.696639 Y22.256357 Z-1.000000
G01 X83.696639 Y20.667923 Z-1.000000
G01 X85.268624 Y19.873705 Z-1.000000
G01 X85.268624 Y18.285271 Z-1.000000
G01 X83.696639 Y19.079488 Z-1.000000
G01 X82.106374 Y18.285271 Z-1.000000
G01 X83.696639 Y17.491054 Z-1.000000
G01 X85.268624 Y16.696837 Z-1.000000
G01 X86.858888 Y17.491054 Z-1.000000
G01 X86.858888 Y19.079488 Z-1.000000
G01 X88.449152 Y19.873705 Z-1.000000
G01 X88.449152 Y18.285271 Z-1.000000
G01 X90.021138 Y17.491054 Z-1.000000
G01 X90.021138 Y19.079488 Z-1.000000
G01 X90.021138 Y20.667923 Z-1.000000
G01 X88.449152 Y21.462140 Z-1.000000
G01 X88.449152 Y23.050574 Z-1.000000
G01 X90.021138 Y23.844791 Z-1.000000
G01 X90.021138 Y22.256357 Z-1.000000
G01 X91.611402 Y21.462140 Z-1.000000
G01 X91.611402 Y23.050574 Z-1.000000
G01 X91.611402 Y24.639009 Z-1.000000
G01 X90.021138 Y25.433226 Z-1.000000
G01 X88.449152 Y24.639009 Z-1.000000
G01 X86.858888 Y25.433226 Z-1.000000
G01 X85.268624 Y26.227443 Z-1.000000
G01 X86.858888 Y27.021660 Z-1.000000
G01 X88.449152 Y26.227443 Z-1.000000
G01 X88.449152 Y27.815877 Z-1.000000
G01 X86.858888 Y28.610095 Z-1.000000
G01 X86.858888 Y30.198529 Z-1.000000
G01 X88.449152 Y30.992746 Z-1.000000
G01 X88.449152 Y29.404312 Z-1.000000
G01 X90.021138 Y28.610095 Z-1.000000
G01 X90.021138 Y30.198529 Z-1.000000
G01 X90.021138 Y31.786963 Z-1.000000
G01 X88.449152 Y32.581180 Z-1.000000
G01 X88.449152 Y34.169615 Z-1.000000
G01 X90.021138 Y34.963832 Z-1.000000
G01 X91.611402 Y35.758049 Z-1.000000
G01 X91.611402 Y34.169615 Z-1.000000
G01 X90.021138 Y33.375398 Z-1.000000
G01 X91.611402 Y32.581180 Z-1.000000
G01 X93.183387 Y33.375398 Z-1.000000
G01 X94.773652 Y32.581180 Z-1.000000
G01 X94.773652 Y30.992746 Z-1.000000
G01 X94.773652 Y29.404312 Z-1.000000
G01 X93.183387 Y30.198529 Z-1.000000
G01 X93.183387 Y31.786963 Z-1.000000
G01 X91.611402 Y30.992746 Z-1.000000
G01 X91.611402 Y29.404312 Z-1.000000
G01 X93.183387 Y28.610095 Z-1.000000
G01 X93.183387 Y27.021660 Z-1.000000
G01 X91.611402 Y27.815877 Z-1.000000
G01 X90.021138 Y27.021660 Z-1.000000
G01 X91.611402 Y26.227443 Z-1.000000
G01 X93.183387 Y25.433226 Z-1.000000
G01 X94.773652 Y26.227443 Z-1.000000
G01 X94.773652 Y27.815877 Z-1.000000
G01 X96.363916 Y28.610095 Z-1.000000
G01 X96.363916 Y27.021660 Z-1.000000
G01 X97.935901 Y26.227443 Z-1.000000
G01 X97.935901 Y27.815877 Z-1.000000
G01 X97.935901 Y29.404312 Z-1.000000
G01 X96.363916 Y30.198529 Z-1.000000
G01 X96.363916 Y31.786963 Z-1.000000
G01 X97.935901 Y32.581180 Z-1.000000
G01 X97.935901 Y30.992746 Z-1.000000
G01 X99.526166 Y30.198529 Z-1.000000
G01 X99.526166 Y31.786963 Z-1.000000
G01 X99.526166 Y33.375398 Z-1.000000
G01 X97.935901 Y34.169615 Z-1.000000
G01 X96.363916 Y33.375398 Z-1.000000
G01 X94.773652 Y34.169615 Z-1.000000
G01 X93.183387 Y34.963832 Z-1.000000
G01 X94.773652 Y35.758049 Z-1.000000
G01 X96.363916 Y34.963832 Z-1.000000
G01 X96.363916 Y36.552266 Z-1.000000
G01 X94.773652 Y37.346484 Z-1.000000
G01 X93.183387 Y36.552266 Z-1.000000
G01 X91.611402 Y37.346484 Z-1.000000
G01 X93.183387 Y38.140701 Z-1.000000
G01 X93.183387 Y39.729135 Z-1.000000
G01 X91.611402 Y38.934918 Z-1.000000
G01 X90.021138 Y38.140701 Z-1.000000
G01 X90.021138 Y36.552266 Z-1.000000
G01 X88.449152 Y35.758049 Z-1.000000
G01 X86.858888 Y36.552266 Z-1.000000
G01 X85.268624 Y37.346484 Z-1.000000
G01 X86.858888 Y38.140701 Z-1.000000
G01 X88.449152 Y37.346484 Z-1.000000
G01 X88.449152 Y38.934918 Z-1.000000
G01 X86.858888 Y39.729135 Z-1.000000
G01 X85.268624 Y38.934918 Z-1.000000
G01 X83.696639 Y39.729135 Z-1.000000
G01 X82.106374 Y40.523352 Z-1.000000
G01 X83.696639 Y41.317570 Z-1.000000
G01 X85.268624 Y40.523352 Z-1.000000
G01 X85.268624 Y42.111787 Z-1.000000
G01 X83.696639 Y42.906004 Z-1.000000
G01 X83.696639 Y44.494438 Z-1.000000
G01 X85.268624 Y45.288656 Z-1.000000
G01 X86.858888 Y46.082873 Z-1.000000
G01 X86.858888 Y44.494438 Z-1.000000
G01 X85.268624 Y43.700221 Z-1.000000
G01 X86.858888 Y42.906004 Z-1.000000
G01 X88.449152 Y43.700221 Z-1.000000
G01 X90.021138 Y42.906004 Z-1.000000
G01 X90.021138 Y41.317570 Z-1.000000
G01 X88.449152 Y42.111787 Z-1.000000
G01 X86.858888 Y41.317570 Z-1.000000
G01 X88.449152 Y40.523352 Z-1.000000
G01 X90.021138 Y39.729135 Z-1.000000
G01 X91.611402 Y40.523352 Z-1.000000
G01 X91.611402 Y42.111787 Z-1.000000
G01 X93.183387 Y42.906004 Z-1.000000
G01 X93.183387 Y41.317570 Z-1.000000
G01 X94.773652 Y40.523352 Z-1.000000
G01 X94.773652 Y42.111787 Z-1.000000
G01 X94.773652 Y43.700221 Z-1.000000
G01 X93.183387 Y44.494438 Z-1.000000
G01 X91.611402 Y43.700221 Z-1.000000
G01 X90.021138 Y44.494438 Z-1.000000
G01 X88.449152 Y45.288656 Z-1.000000
G01 X90.021138 Y46.082873 Z-1.000000
G01 X91.611402 Y45.288656 Z-1.000000
G01 X91.611402 Y46.877090 Z-1.000000
G01 X90.021138 Y47.671307 Z-1.000000
G01 X88.449152 Y46.877090 Z-1.000000
G01 X86.858888 Y47.671307 Z-1.000000
G01 X88.449152 Y48.465524 Z-1.000000
G01 X88.449152 Y50.053959 Z-1.000000
G01 X86.858888 Y49.259742 Z-1.000000
G01 X85.268624 Y48.465524 Z-1.000000
G01 X85.268624 Y46.877090 Z-1.000000
G01 X83.696639 Y46.082873 Z-1.000000
G01 X82.106374 Y46.877090 Z-1.000000
G01 X80.534389 Y47.671307 Z-1.000000
G01 X82.106374 Y48.465524 Z-1.000000
G01 X83.696639 Y47.671307 Z-1.000000
G01 X83.696639 Y49.259742 Z-1.000000
G01 X82.106374 Y50.053959 Z-1.000000
G01 X82.106374 Y51.642393 Z-1.000000
G01 X83.696639 Y52.436610 Z-1.000000
G01 X85.268624 Y53.230827 Z-1.000000
G01 X85.268624 Y51.642393 Z-1.000000
G01 X83.696639 Y50.848176 Z-1.000000
G01 X85.268624 Y50.053959 Z-1.000000
G01 X86.858888 Y50.848176 Z-1.000000
G01 X86.858888 Y52.436610 Z-1.000000
G01 X88.449152 Y53.230827 Z-1.000000
G01 X88.449152 Y51.642393 Z-1.000000
G01 X90.021138 Y50.848176 Z-1.000000
G01 X90.021138 Y52.436610 Z-1.000000
G01 X90.021138 Y54.025045 Z-1.000000
G01 X88.449152 Y54.819262 Z-1.000000
G01 X86.858888 Y54.025045 Z-1.000000
G01 X85.268624 Y54.819262 Z-1.000000
G01 X86.858888 Y55.613479 Z-1.000000
G01 X86.858888 Y57.201913 Z-1.000000
G01 X85.268624 Y56.407696 Z-1.000000
G01 X83.696639 Y55.613479 Z-1.000000
G01 X83.696639 Y54.025045 Z-1.000000
G01 X82.106374 Y53.230827 Z-1.000000
G01 X80.534389 Y54.025045 Z-1.000000
G01 X82.106374 Y54.819262 Z-1.000000
G01 X82.106374 Y56.407696 Z-1.000000
G01 X80.534389 Y55.613479 Z-1.000000
G01 X78.944125 Y54.819262 Z-1.000000
G01 X78.944125 Y53.230827 Z-1.000000
G01 X80.534389 Y52.436610 Z-1.000000
G01 X80.534389 Y50.848176 Z-1.000000
G01 X80.534389 Y49.259742 Z-1.000000
G01 X78.944125 Y50.053959 Z-1.000000
G01 X78.944125 Y51.642393 Z-1.000000
G01 X77.353860 Y50.848176 Z-1.000000
G01 X77.353860 Y49.259742 Z-1.000000
G01 X75.781875 Y48.465524 Z-1.000000
G01 X74.191611 Y49.259742 Z-1.000000
G01 X75.781875 Y50.053959 Z-1.000000
G01 X75.781875 Y51.642393 Z-1.000000
G01 X74.191611 Y50.848176 Z-1.000000
G01 X72.619625 Y50.053959 Z-1.000000
G01 X72.619625 Y48.465524 Z-1.000000
G01 X71.029361 Y47.671307 Z-1.000000
G01 X69.439097 Y48.465524 Z-1.000000
G01 X67.867111 Y49.259742 Z-1.000000
G01 X69.439097 Y50.053959 Z-1.000000
G01 X71.029361 Y49.259742 Z-1.000000
G01 X71.029361 Y50.848176 Z-1.000000
G01 X69.439097 Y51.642393 Z-1.000000
G01 X67.867111 Y50.848176 Z-1.000000
G01 X66.276847 Y51.642393 Z-1.000000
G01 X64.704862 Y52.436610 Z-1.000000
G01 X66.276847 Y53.230827 Z-1.000000
G01 X67.867111 Y52.436610 Z-1.000000
G01 X67.867111 Y54.025045 Z-1.000000
G01 X66.276847 Y54.819262 Z-1.000000
G01 X66.276847 Y56.407696 Z-1.000000
G01 X67.867111 Y57.201913 Z-1.000000
G01 X69.439097 Y57.996131 Z-1.000000
G01 X69.439097 Y56.407696 Z-1.000000
G01 X67.867111 Y55.613479 Z-1.000000
G01 X69.439097 Y54.819262 Z-1.000000
G01 X71.029361 Y55.613479 Z-1.000000
G01 X72.619625 Y54.819262 Z-1.000000
G01 X72.619625 Y53.230827 Z-1.000000
G01 X71.029361 Y54.025045 Z-1.000000
G01 X69.439097 Y53.230827 Z-1.000000
G01 X71.029361 Y52.436610 Z-1.000000
G01 X72.619625 Y51.642393 Z-1.000000
G01 X74.191611 Y52.436610 Z-1.000000
G01 X74.191611 Y54.025045 Z-1.000000
G01 X75.781875 Y54.819262 Z-1.000000
G01 X75.781875 Y53.230827 Z-1.000000
G01 X77.353860 Y52.436610 Z-1.000000
G01 X77.353860 Y54.025045 Z-1.000000
G01 X77.353860 Y55.613479 Z-1.000000
G01 X75.781875 Y56.407696 Z-1.000000
G01 X74.191611 Y55.613479 Z-1.000000
G01 X72.619625 Y56.407696 Z-1.000000
G01 X71.029361 Y57.201913 Z-1.000000
G01 X72.619625 Y57.996131 Z-1.000000
G01 X74.191611 Y57.201913 Z-1.000000
G01 X74.191611 Y58.790348 Z-1.000000
G01 X72.619625 Y59.584565 Z-1.000000
G01 X71.029361 Y58.790348 Z-1.000000
G01 X69.439097 Y59.584565 Z-1.000000
G01 X71.029361 Y60.378782 Z-1.000000
G01 X71.029361 Y61.967217 Z-1.000000
G01 X69.439097 Y61.172999 Z-1.000000
G01 X67.867111 Y60.378782 Z-1.000000
G01 X67.867111 Y58.790348 Z-1.000000
G01 X66.276847 Y57.996131 Z-1.000000
G01 X64.704862 Y58.790348 Z-1.000000
G01 X63.114597 Y59.584565 Z-1.000000
G01 X64.704862 Y60.378782 Z-1.000000
G01 X66.276847 Y59.584565 Z-1.000000
G01 X66.276847 Y61.172999 Z-1.000000
G01 X64.704862 Y61.967217 Z-1.000000
G01 X63.114597 Y61.172999 Z-1.000000
G01 X61.524333 Y61.967217 Z-1.000000
G01 X59.952348 Y62.761434 Z-1.000000
G01 X61.524333 Y63.555651 Z-1.000000
G01 X63.114597 Y62.761434 Z-1.000000
G01 X63.114597 Y64.349868 Z-1.000000
G01 X61.524333 Y65.144085 Z-1.000000
G01 X61.524333 Y66.732520 Z-1.000000
G01 X63.114597 Y67.526737 Z-1.000000
G01 X64.704862 Y68.320954 Z-1.000000
G01 X64.704862 Y66.732520 Z-1.000000
G01 X63.114597 Y65.938303 Z-1.000000
G01 X64.704862 Y65.144085 Z-1.000000
G01 X66.276847 Y65.938303 Z-1.000000
G01 X67.867111 Y65.144085 Z-1.000000
G01 X67.867111 Y63.555651 Z-1.000000
G01 X66.276847 Y64.349868 Z-1.000000
G01 X64.704862 Y63.555651 Z-1.000000
G01 X66.276847 Y62.761434 Z-1.000000
G01 X67.867111 Y61.967217 Z-1.000000
G01 X69.439097 Y62.761434 Z-1.000000
G01 X69.439097 Y64.349868 Z-1.000000
G01 X71.029361 Y65.144085 Z-1.000000
G01 X71.029361 Y63.555651 Z-1.000000
G01 X72.619625 Y62.761434 Z-1.000000
G01 X72.619625 Y64.349868 Z-1.000000
G01 X72.619625 Y65.938303 Z-1.000000
G01 X71.029361 Y66.732520 Z-1.000000
G01 X69.439097 Y65.938303 Z-1.000000
G01 X67.867111 Y66.732520 Z-1.000000
G01 X66.276847 Y67.526737 Z-1.000000
G01 X67.867111 Y68.320954 Z-1.000000
G01 X69.439097 Y67.526737 Z-1.000000
G01 X69.439097 Y69.115171 Z-1.000000
G01 X67.867111 Y69.909388 Z-1.000000
G01 X67.867111 Y71.497823 Z-1.000000
G01 X69.439097 Y72.292040 Z-1.000000
G01 X69.439097 Y70.703606 Z-1.000000
G01 X71.029361 Y69.909388 Z-1.000000
G01 X71.029361 Y71.497823 Z-1.000000
G01 X71.029361 Y73.086257 Z-1.000000
G01 X69.439097 Y73.880474 Z-1.000000
G01 X69.439097 Y75.468909 Z-1.000000
G01 X71.029361 Y76.263126 Z-1.000000
G01 X72.619625 Y77.057343 Z-1.000000
G01 X72.619625 Y75.468909 Z-1.000000
G01 X71.029361 Y74.674692 Z-1.000000
G01 X72.619625 Y73.880474 Z-1.000000
G01 X74.191611 Y74.674692 Z-1.000000
G01 X74.191611 Y76.263126 Z-1.000000
G01 X75.781875 Y77.057343 Z-1.000000
G01 X77.353860 Y77.851560 Z-1.000000
G01 X77.353860 Y76.263126 Z-1.000000
G01 X75.781875 Y75.468909 Z-1.000000
G01 X77.353860 Y74.674692 Z-1.000000
G01 X78.944125 Y75.468909 Z-1.000000
G01 X80.534389 Y74.674692 Z-1.000000
G01 X80.534389 Y73.086257 Z-1.000000
G01 X80.534389 Y71.497823 Z-1.000000
G01 X78.944125 Y72.292040 Z-1.000000
G01 X78.944125 Y73.880474 Z-1.000000
G01 X77.353860 Y73.086257 Z-1.000000
G01 X77.353860 Y71.497823 Z-1.000000
G01 X75.781875 Y70.703606 Z-1.000000
G01 X74.191611 Y71.497823 Z-1.000000
G01 X75.781875 Y72.292040 Z-1.000000
G01 X75.781875 Y73.880474 Z-1.000000
G01 X74.191611 Y73.086257 Z-1.000000
G01 X72.619625 Y72.292040 Z-1.000000
G01 X72.619625 Y70.703606 Z-1.000000
G01 X74.191611 Y69.909388 Z-1.000000
G01 X74.191611 Y68.320954 Z-1.000000
G01 X72.619625 Y69.115171 Z-1.000000
G01 X71.029361 Y68.320954 Z-1.000000
G01 X72.619625 Y67.526737 Z-1.000000
G01 X74.191611 Y66.732520 Z-1.000000
G01 X75.781875 Y67.526737 Z-1.000000
G01 X75.781875 Y69.115171 Z-1.000000
G01 X77.353860 Y69.909388 Z-1.000000
G01 X78.944125 Y70.703606 Z-1.000000
G01 X78.944125 Y69.115171 Z-1.000000
G01 X77.353860 Y68.320954 Z-1.000000
G01 X78.944125 Y67.526737 Z-1.000000
G01 X80.534389 Y68.320954 Z-1.000000
G01 X82.106374 Y67.526737 Z-1.000000
G01 X82.106374 Y65.938303 Z-1.000000
G01 X80.534389 Y66.732520 Z-1.000000
G01 X78.944125 Y65.938303 Z-1.000000
G01 X80.534389 Y65.144085 Z-1.000000
G01 X82.106374 Y64.349868 Z-1.000000
G01 X83.696639 Y65.144085 Z-1.000000
G01 X85.268624 Y64.349868 Z-1.000000
G01 X85.268624 Y62.761434 Z-1.000000
G01 X85.268624 Y61.172999 Z-1.000000
G01 X83.696639 Y61.967217 Z-1.000000
G01 X83.696639 Y63.555651 Z-1.000000
G01 X82.106374 Y62.761434 Z-1.000000
G01 X82.106374 Y61.172999 Z-1.000000
G01 X80.534389 Y60.378782 Z-1.000000
G01 X78.944125 Y61.172999 Z-1.000000
G01 X77.353860 Y61.967217 Z-1.000000
G01 X78.944125 Y62.761434 Z-1.000000
G01 X80.534389 Y61.967217 Z-1.000000
G01 X80.534389 Y63.555651 Z-1.000000
G01 X78.944125 Y64.349868 Z-1.000000
G01 X77.353860 Y63.555651 Z-1.000000
G01 X75.781875 Y64.349868 Z-1.000000
G01 X77.353860 Y65.144085 Z-1.000000
G01 X77.353860 Y66.732520 Z-1.000000
G01 X75.781875 Y65.938303 Z-1.000000
G01 X74.191611 Y65.144085 Z-1.000000
G01 X74.191611 Y63.555651 Z-1.000000
G01 X75.781875 Y62.761434 Z-1.000000
G01 X75.781875 Y61.172999 Z-1.000000
G01 X74.191611 Y61.967217 Z-1.000000
G01 X72.619625 Y61.172999 Z-1.000000
G01 X74.191611 Y60.378782 Z-1.000000
G01 X75.781875 Y59.584565 Z-1.000000
G01 X77.353860 Y60.378782 Z-1.000000
G01 X78.944125 Y59.584565 Z-1.000000
G01 X78.944125 Y57.996131 Z-1.000000
G01 X77.353860 Y58.790348 Z-1.000000
G01 X75.781875 Y57.996131 Z-1.000000
G01 X77.353860 Y57.201913 Z-1.000000
G01 X78.944125 Y56.407696 Z-1.000000
G01 X80.534389 Y57.201913 Z-1.000000
G01 X80.534389 Y58.790348 Z-1.000000
G01 X82.106374 Y59.584565 Z-1.000000
G01 X83.696639 Y60.378782 Z-1.000000
G01 X83.696639 Y58.790348 Z-1.000000
G01 X82.106374 Y57.996131 Z-1.000000
G01 X83.696639 Y57.201913 Z-1.000000
G01 X85.268624 Y57.996131 Z-1.000000
G01 X85.268624 Y59.584565 Z-1.000000
G01 X86.858888 Y60.378782 Z-1.000000
G01 X86.858888 Y58.790348 Z-1.000000
G01 X88.449152 Y57.996131 Z-1.000000
G01 X88.449152 Y59.584565 Z-1.000000
G01 X88.449152 Y61.172999 Z-1.000000
G01 X86.858888 Y61.967217 Z-1.000000
G01 X86.858888 Y63.555651 Z-1.000000
G01 X88.449152 Y64.349868 Z-1.000000
G01 X90.021138 Y65.144085 Z-1.000000
G01 X90.021138 Y63.555651 Z-1.000000
G01 X88.449152 Y62.761434 Z-1.000000
G01 X90.021138 Y61.967217 Z-1.000000
G01 X91.611402 Y62.761434 Z-1.000000
G01 X93.183387 Y61.967217 Z-1.000000
G01 X93.183387 Y60.378782 Z-1.000000
G01 X93.183387 Y58.790348 Z-1.000000
G01 X91.611402 Y59.584565 Z-1.000000
G01 X91.611402 Y61.172999 Z-1.000000
G01 X90.021138 Y60.378782 Z-1.000000
G01 X90.021138 Y58.790348 Z-1.000000
G01 X91.611402 Y57.996131 Z-1.000000
G01 X91.611402 Y56.407696 Z-1.000000
G01 X90.021138 Y57.201913 Z-1.000000
G01 X88.449152 Y56.407696 Z-1.000000
G01 X90.021138 Y55.613479 Z-1.000000
G01 X91.611402 Y54.819262 Z-1.000000
G01 X93.183387 Y55.613479 Z-1.000000
G01 X93.183387 Y57.201913 Z-1.000000
G01 X94.773652 Y57.996131 Z-1.000000
G01 X94.773652 Y56.407696 Z-1.000000
G01 X96.363916 Y55.613479 Z-1.000000
G01 X96.363916 Y57.201913 Z-1.000000
G01 X96.363916 Y58.790348 Z-1.000000
G01 X94.773652 Y59.584565 Z-1.000000
G01 X94.773652 Y61.172999 Z-1.000000
G01 X96.363916 Y61.967217 Z-1.000000
G01 X96.363916 Y60.378782 Z-1.000000
G01 X97.935901 Y59.584565 Z-1.000000
G01 X97.935901 Y61.172999 Z-1.000000
G01 X97.935901 Y62.761434 Z-1.000000
G01 X96.363916 Y63.555651 Z-1.000000
G01 X94.773652 Y62.761434 Z-1.000000
G01 X93.183387 Y63.555651 Z-1.000000
G01 X91.611402 Y64.349868 Z-1.000000
G01 X93.183387 Y65.144085 Z-1.000000
G01 X94.773652 Y64.349868 Z-1.000000
G01 X94.773652 Y65.938303 Z-1.000000
G01 X93.183387 Y66.732520 Z-1.000000
G01 X91.611402 Y65.938303 Z-1.000000
G01 X90.021138 Y66.732520 Z-1.000000
G01 X91.611402 Y67.526737 Z-1.000000
G01 X91.611402 Y69.115171 Z-1.000000
G01 X90.021138 Y68.320954 Z-1.000000
G01 X88.449152 Y67.526737 Z-1.000000
G01 X88.449152 Y65.938303 Z-1.000000
G01 X86.858888 Y65.144085 Z-1.000000
G01 X85.268624 Y65.938303 Z-1.000000
G01 X83.696639 Y66.732520 Z-1.000000
G01 X85.268624 Y67.526737 Z-1.000000
G01 X86.858888 Y66.732520 Z-1.000000
G01 X86.858888 Y68.320954 Z-1.000000
G01 X85.268624 Y69.115171 Z-1.000000
G01 X83.696639 Y68.320954 Z-1.000000
G01 X82.106374 Y69.115171 Z-1.000000
G01 X80.534389 Y69.909388 Z-1.000000
G01 X82.106374 Y70.703606 Z-1.000000
G01 X83.696639 Y69.909388 Z-1.000000
G01 X83.696639 Y71.497823 Z-1.000000
G01 X82.106374 Y72.292040 Z-1.000000
G01 X82.106374 Y73.880474 Z-1.000000
G01 X83.696639 Y74.674692 Z-1.000000
G01 X85.268624 Y75.468909 Z-1.000000
G01 X85.268624 Y73.880474 Z-1.000000
G01 X83.696639 Y73.086257 Z-1.000000
G01 X85.268624 Y72.292040 Z-1.000000
G01 X86.858888 Y73.086257 Z-1.000000
G01 X88.449152 Y72.292040 Z-1.000000
G01 X88.449152 Y70.703606 Z-1.000000
G01 X86.858888 Y71.497823 Z-1.000000
G01 X85.268624 Y70.703606 Z-1.000000
G01 X86.858888 Y69.909388 Z-1.000000
G01 X88.449152 Y69.115171 Z-1.000000
G01 X90.021138 Y69.909388 Z-1.000000
G01 X90.021138 Y71.497823 Z-1.000000
G01 X91.611402 Y72.292040 Z-1.000000
G01 X91.611402 Y70.703606 Z-1.000000
G01 X93.183387 Y69.909388 Z-1.000000
G01 X93.183387 Y71.497823 Z-1.000000
G01 X93.183387 Y73.086257 Z-1.000000
G01 X91.611402 Y73.880474 Z-1.000000
G01 X90.021138 Y73.086257 Z-1.000000
G01 X88.449152 Y73.880474 Z-1.000000
G01 X86.858888 Y74.674692 Z-1.000000
G01 X88.449152 Y75.468909 Z-1.000000
G01 X90.021138 Y74.674692 Z-1.000000
G01 X90.021138 Y76.263126 Z-1.000000
G01 X88.449152 Y77.057343 Z-1.000000

M05
(End cutting path id: polyline2997)


(Footer)
M5
G00 X0.0000 Y0.0000
M2
(Using default footer. To add your own footer create file "footer" in the output dir.)
(end)
%